(Generated by PartKam Version 0.05)

G20 G90 G40

(Drill Holes)
G0 Z0.15
T0 M6
G17
M3
G0 X5.5406 Y4.9104
G1 Z-0.2 F30
G1 Z0 F30
G1 Z-0.4 F30
G1 Z0 F30
G1 Z-0.6 F30
G1 Z0 F30
G1 Z-0.8 F30
G1 Z0 F30
G1 Z-0.85 F30
G1 Z0 F30
G0 Z0.15
G0 X5.5406 Y10.1066
G1 Z-0.2 F30
G1 Z0 F30
G1 Z-0.4 F30
G1 Z0 F30
G1 Z-0.6 F30
G1 Z0 F30
G1 Z-0.8 F30
G1 Z0 F30
G1 Z-0.85 F30
G1 Z0 F30
G0 Z0.15
G0 X10.0406 Y7.5085
G1 Z-0.2 F30
G1 Z0 F30
G1 Z-0.4 F30
G1 Z0 F30
G1 Z-0.6 F30
G1 Z0 F30
G1 Z-0.8 F30
G1 Z0 F30
G1 Z-0.85 F30
G1 Z0 F30

(Cut Intricate Part)
G0 Z0.15
G0 X22.129 Y5.9887
G1 Z-0.1 F30
G1 X22.129 Y4.7008 F35
G1 X22.129 Y4.7008
G3 X22.2915 Y4.5815 I0.125 J0
G3 X22.7558 Y4.7747 I-0.8438 J2.6833
G3 X23.1502 Y5.033 I-1.1423 J2.1744
G3 X23.488 Y5.3619 I-1.5367 J1.9161
G3 X23.5656 Y5.4577 I-2.1466 J1.8177
G3 X23.7774 Y5.7731 I-2.2242 J1.7219
G3 X23.835 Y5.8781 I-2.436 J1.4064
G3 X23.9889 Y6.2293 I-2.4936 J1.3015
G3 X24.1048 Y6.6863 I-2.3118 J0.8297
G3 X24.1332 Y7.0591 I-2.4278 J0.3727
G3 X24.1313 Y7.1571 I-2.4562 J0
G3 X24.0664 Y7.6557 I-2.8106 J-0.1122
G3 X23.8819 Y7.7368 I-0.122 J-0.0271
G1 X22.7666 Y7.0929
G3 X22.7083 Y7.0169 I0.0625 J-0.1083
G2 X22.7051 Y7.0098 I-0.0241 J0.0065
G2 X22.6999 Y7.004 I-0.021 J0.0136
G2 X22.6931 Y7.0001 I-0.0157 J0.0194
G2 X22.6855 Y6.9984 I-0.009 J0.0233
G2 X22.6777 Y6.9993 I-0.0013 J0.025
G2 X22.6705 Y7.0024 I0.0065 J0.0241
G2 X22.6647 Y7.0077 I0.0136 J0.021
G2 X22.6608 Y7.0145 I0.0194 J0.0157
G2 X22.6592 Y7.0221 I0.0233 J0.009
G2 X22.6592 Y7.0234 I0.025 J0.0013
G2 X22.66 Y7.0299 I0.025 J0
G3 X22.6643 Y7.0623 I-0.1207 J0.0324
G3 X22.6475 Y7.1248 I-0.125 J0
G1 X22.1097 Y8.0564
G3 X22.0337 Y8.1146 I-0.1083 J-0.0625
G2 X22.0266 Y8.1178 I0.0065 J0.0241
G2 X22.0208 Y8.123 I0.0136 J0.021
G2 X22.0169 Y8.1298 I0.0194 J0.0157
G2 X22.0152 Y8.1375 I0.0233 J0.009
G2 X22.0152 Y8.1388 I0.025 J0.0013
G2 X22.0161 Y8.1452 I0.025 J0
G2 X22.0192 Y8.1524 I0.0241 J-0.0065
G2 X22.0245 Y8.1582 I0.021 J-0.0136
G2 X22.0313 Y8.1621 I0.0157 J-0.0194
G2 X22.0389 Y8.1637 I0.009 J-0.0233
G2 X22.0467 Y8.1629 I0.0013 J-0.025
G3 X22.1416 Y8.1754 I0.0324 J0.1207
G1 X22.608 Y8.4447
G1 X23.0411 Y8.6947
G1 X23.2569 Y8.8193
G3 X23.3194 Y8.9276 I-0.0625 J0.1083
G3 X23.2789 Y9.0197 I-0.125 J0
G3 X22.8795 Y9.3252 I-1.9018 J-2.0724
G3 X22.4586 Y9.5376 I-1.312 J-2.0764
G3 X22.0049 Y9.6657 I-0.8911 J-2.2889
G3 X21.504 Y9.7106 I-0.5008 J-2.7679
G3 X21.0032 Y9.6657 I0 J-2.8128
G3 X20.5495 Y9.5376 I0.4373 J-2.417
G3 X20.1286 Y9.3252 I0.8911 J-2.2889
G3 X19.7292 Y9.0197 I1.5025 J-2.3779
G3 X19.6887 Y8.9276 I0.0845 J-0.0921
G3 X19.7512 Y8.8193 I0.125 J0
G1 X19.9269 Y8.7179
G1 X20.3599 Y8.4679
G1 X20.8665 Y8.1754
G3 X20.9614 Y8.1629 I0.0625 J0.1083
G2 X20.9711 Y8.1635 I0.0065 J-0.0241
G2 X20.9804 Y8.1604 I-0.0033 J-0.0248
G2 X20.9877 Y8.154 I-0.0125 J-0.0217
G2 X20.992 Y8.1452 I-0.0198 J-0.0152
G2 X20.9929 Y8.1388 I-0.0241 J-0.0065
G2 X20.9926 Y8.1355 I-0.025 J0
G2 X20.9895 Y8.1263 I-0.0248 J0.0033
G2 X20.9831 Y8.1189 I-0.0217 J0.0125
G2 X20.9743 Y8.1146 I-0.0152 J0.0198
G3 X20.8984 Y8.0564 I0.0324 J-0.1207
G1 X20.3606 Y7.1248
G3 X20.3438 Y7.0623 I0.1083 J-0.0625
G3 X20.3481 Y7.0299 I0.125 J0
G2 X20.3489 Y7.0234 I-0.0241 J-0.0065
G2 X20.3487 Y7.0202 I-0.025 J0
G2 X20.3456 Y7.0109 I-0.0248 J0.0033
G2 X20.3391 Y7.0036 I-0.0217 J0.0125
G2 X20.3304 Y6.9993 I-0.0152 J0.0198
G2 X20.3207 Y6.9986 I-0.0065 J0.0241
G2 X20.3114 Y7.0018 I0.0033 J0.0248
G2 X20.3041 Y7.0082 I0.0125 J0.0217
G2 X20.2998 Y7.017 I0.0198 J0.0152
G3 X20.2415 Y7.0929 I-0.1207 J-0.0324
G1 X19.1262 Y7.7368
G3 X18.9417 Y7.6557 I-0.0625 J-0.1083
G3 X18.8768 Y7.1571 I2.7457 J-0.6108
G3 X18.8748 Y7.0591 I2.4542 J-0.098
G3 X18.9033 Y6.6863 I2.4562 J0
G3 X19.0192 Y6.2293 I2.4278 J0.3727
G3 X19.2307 Y5.7731 I2.6475 J0.9502
G3 X19.348 Y5.5873 I2.436 J1.4064
G3 X19.5201 Y5.3619 I2.3187 J1.5923
G3 X19.6669 Y5.2032 I1.8745 J1.5872
G3 X19.8579 Y5.033 I1.7276 J1.7459
G3 X20.2523 Y4.7747 I1.5367 J1.9161
G3 X20.7165 Y4.5815 I1.3081 J2.4901
G3 X20.879 Y4.7008 I0.0375 J0.1192
G1 X20.879 Y4.7008
G1 X20.879 Y5.9887
G3 X20.8424 Y6.077 I-0.125 J0
G2 X20.8378 Y6.0834 I0.0177 J0.0177
G2 X20.8354 Y6.0908 I0.0223 J0.0113
G2 X20.8351 Y6.0947 I0.0247 J0.0039
G2 X20.8354 Y6.0986 I0.025 J0
G2 X20.8378 Y6.1061 I0.0247 J-0.0039
G2 X20.8424 Y6.1124 I0.0223 J-0.0113
G2 X20.8488 Y6.117 I0.0177 J-0.0177
G2 X20.8562 Y6.1194 I0.0113 J-0.0223
G2 X20.864 Y6.1194 I0.0039 J-0.0247
G2 X20.8715 Y6.117 I-0.0039 J-0.0247
G2 X20.8778 Y6.1124 I-0.0113 J-0.0223
G3 X20.9662 Y6.0758 I0.0884 J0.0884
G1 X22.0419 Y6.0758
G3 X22.1303 Y6.1124 I0 J0.125
G2 X22.1384 Y6.1178 I0.0177 J-0.0177
G2 X22.148 Y6.1197 I0.0096 J-0.0231
G2 X22.1575 Y6.1178 I0 J-0.025
G2 X22.1657 Y6.1124 I-0.0096 J-0.0231
G2 X22.1711 Y6.1043 I-0.0177 J-0.0177
G2 X22.173 Y6.0947 I-0.0231 J-0.0096
G1 X22.173 Y6.0947
G2 X22.1711 Y6.0852 I-0.025 J0
G2 X22.1657 Y6.077 I-0.0231 J0.0096
G3 X22.129 Y5.9887 I0.0884 J-0.0884
G1 Z-0.2 F30
G1 X22.129 Y4.7008 F35
G1 X22.129 Y4.7008
G3 X22.2915 Y4.5815 I0.125 J0
G3 X22.7558 Y4.7747 I-0.8438 J2.6833
G3 X23.1502 Y5.033 I-1.1423 J2.1744
G3 X23.488 Y5.3619 I-1.5367 J1.9161
G3 X23.5656 Y5.4577 I-2.1466 J1.8177
G3 X23.7774 Y5.7731 I-2.2242 J1.7219
G3 X23.835 Y5.8781 I-2.436 J1.4064
G3 X23.9889 Y6.2293 I-2.4936 J1.3015
G3 X24.1048 Y6.6863 I-2.3118 J0.8297
G3 X24.1332 Y7.0591 I-2.4278 J0.3727
G3 X24.1313 Y7.1571 I-2.4562 J0
G3 X24.0664 Y7.6557 I-2.8106 J-0.1122
G3 X23.8819 Y7.7368 I-0.122 J-0.0271
G1 X22.7666 Y7.0929
G3 X22.7083 Y7.0169 I0.0625 J-0.1083
G2 X22.7051 Y7.0098 I-0.0241 J0.0065
G2 X22.6999 Y7.004 I-0.021 J0.0136
G2 X22.6931 Y7.0001 I-0.0157 J0.0194
G2 X22.6855 Y6.9984 I-0.009 J0.0233
G2 X22.6777 Y6.9993 I-0.0013 J0.025
G2 X22.6705 Y7.0024 I0.0065 J0.0241
G2 X22.6647 Y7.0077 I0.0136 J0.021
G2 X22.6608 Y7.0145 I0.0194 J0.0157
G2 X22.6592 Y7.0221 I0.0233 J0.009
G2 X22.6592 Y7.0234 I0.025 J0.0013
G2 X22.66 Y7.0299 I0.025 J0
G3 X22.6643 Y7.0623 I-0.1207 J0.0324
G3 X22.6475 Y7.1248 I-0.125 J0
G1 X22.1097 Y8.0564
G3 X22.0337 Y8.1146 I-0.1083 J-0.0625
G2 X22.0266 Y8.1178 I0.0065 J0.0241
G2 X22.0208 Y8.123 I0.0136 J0.021
G2 X22.0169 Y8.1298 I0.0194 J0.0157
G2 X22.0152 Y8.1375 I0.0233 J0.009
G2 X22.0152 Y8.1388 I0.025 J0.0013
G2 X22.0161 Y8.1452 I0.025 J0
G2 X22.0192 Y8.1524 I0.0241 J-0.0065
G2 X22.0245 Y8.1582 I0.021 J-0.0136
G2 X22.0313 Y8.1621 I0.0157 J-0.0194
G2 X22.0389 Y8.1637 I0.009 J-0.0233
G2 X22.0467 Y8.1629 I0.0013 J-0.025
G3 X22.1416 Y8.1754 I0.0324 J0.1207
G1 X22.608 Y8.4447
G1 X23.0411 Y8.6947
G1 X23.2569 Y8.8193
G3 X23.3194 Y8.9276 I-0.0625 J0.1083
G3 X23.2789 Y9.0197 I-0.125 J0
G3 X22.8795 Y9.3252 I-1.9018 J-2.0724
G3 X22.4586 Y9.5376 I-1.312 J-2.0764
G3 X22.0049 Y9.6657 I-0.8911 J-2.2889
G3 X21.504 Y9.7106 I-0.5008 J-2.7679
G3 X21.0032 Y9.6657 I0 J-2.8128
G3 X20.5495 Y9.5376 I0.4373 J-2.417
G3 X20.1286 Y9.3252 I0.8911 J-2.2889
G3 X19.7292 Y9.0197 I1.5025 J-2.3779
G3 X19.6887 Y8.9276 I0.0845 J-0.0921
G3 X19.7512 Y8.8193 I0.125 J0
G1 X19.9269 Y8.7179
G1 X20.3599 Y8.4679
G1 X20.8665 Y8.1754
G3 X20.9614 Y8.1629 I0.0625 J0.1083
G2 X20.9711 Y8.1635 I0.0065 J-0.0241
G2 X20.9804 Y8.1604 I-0.0033 J-0.0248
G2 X20.9877 Y8.154 I-0.0125 J-0.0217
G2 X20.992 Y8.1452 I-0.0198 J-0.0152
G2 X20.9929 Y8.1388 I-0.0241 J-0.0065
G2 X20.9926 Y8.1355 I-0.025 J0
G2 X20.9895 Y8.1263 I-0.0248 J0.0033
G2 X20.9831 Y8.1189 I-0.0217 J0.0125
G2 X20.9743 Y8.1146 I-0.0152 J0.0198
G3 X20.8984 Y8.0564 I0.0324 J-0.1207
G1 X20.3606 Y7.1248
G3 X20.3438 Y7.0623 I0.1083 J-0.0625
G3 X20.3481 Y7.0299 I0.125 J0
G2 X20.3489 Y7.0234 I-0.0241 J-0.0065
G2 X20.3487 Y7.0202 I-0.025 J0
G2 X20.3456 Y7.0109 I-0.0248 J0.0033
G2 X20.3391 Y7.0036 I-0.0217 J0.0125
G2 X20.3304 Y6.9993 I-0.0152 J0.0198
G2 X20.3207 Y6.9986 I-0.0065 J0.0241
G2 X20.3114 Y7.0018 I0.0033 J0.0248
G2 X20.3041 Y7.0082 I0.0125 J0.0217
G2 X20.2998 Y7.017 I0.0198 J0.0152
G3 X20.2415 Y7.0929 I-0.1207 J-0.0324
G1 X19.1262 Y7.7368
G3 X18.9417 Y7.6557 I-0.0625 J-0.1083
G3 X18.8768 Y7.1571 I2.7457 J-0.6108
G3 X18.8748 Y7.0591 I2.4542 J-0.098
G3 X18.9033 Y6.6863 I2.4562 J0
G3 X19.0192 Y6.2293 I2.4278 J0.3727
G3 X19.2307 Y5.7731 I2.6475 J0.9502
G3 X19.348 Y5.5873 I2.436 J1.4064
G3 X19.5201 Y5.3619 I2.3187 J1.5923
G3 X19.6669 Y5.2032 I1.8745 J1.5872
G3 X19.8579 Y5.033 I1.7276 J1.7459
G3 X20.2523 Y4.7747 I1.5367 J1.9161
G3 X20.7165 Y4.5815 I1.3081 J2.4901
G3 X20.879 Y4.7008 I0.0375 J0.1192
G1 X20.879 Y4.7008
G1 X20.879 Y5.9887
G3 X20.8424 Y6.077 I-0.125 J0
G2 X20.8378 Y6.0834 I0.0177 J0.0177
G2 X20.8354 Y6.0908 I0.0223 J0.0113
G2 X20.8351 Y6.0947 I0.0247 J0.0039
G2 X20.8354 Y6.0986 I0.025 J0
G2 X20.8378 Y6.1061 I0.0247 J-0.0039
G2 X20.8424 Y6.1124 I0.0223 J-0.0113
G2 X20.8488 Y6.117 I0.0177 J-0.0177
G2 X20.8562 Y6.1194 I0.0113 J-0.0223
G2 X20.864 Y6.1194 I0.0039 J-0.0247
G2 X20.8715 Y6.117 I-0.0039 J-0.0247
G2 X20.8778 Y6.1124 I-0.0113 J-0.0223
G3 X20.9662 Y6.0758 I0.0884 J0.0884
G1 X22.0419 Y6.0758
G3 X22.1303 Y6.1124 I0 J0.125
G2 X22.1384 Y6.1178 I0.0177 J-0.0177
G2 X22.148 Y6.1197 I0.0096 J-0.0231
G2 X22.1575 Y6.1178 I0 J-0.025
G2 X22.1657 Y6.1124 I-0.0096 J-0.0231
G2 X22.1711 Y6.1043 I-0.0177 J-0.0177
G2 X22.173 Y6.0947 I-0.0231 J-0.0096
G1 X22.173 Y6.0947
G2 X22.1711 Y6.0852 I-0.025 J0
G2 X22.1657 Y6.077 I-0.0231 J0.0096
G3 X22.129 Y5.9887 I0.0884 J-0.0884
G1 Z-0.3 F30
G1 X22.129 Y4.7008 F35
G1 X22.129 Y4.7008
G3 X22.2915 Y4.5815 I0.125 J0
G3 X22.7558 Y4.7747 I-0.8438 J2.6833
G3 X23.1502 Y5.033 I-1.1423 J2.1744
G3 X23.488 Y5.3619 I-1.5367 J1.9161
G3 X23.5656 Y5.4577 I-2.1466 J1.8177
G3 X23.7774 Y5.7731 I-2.2242 J1.7219
G3 X23.835 Y5.8781 I-2.436 J1.4064
G3 X23.9889 Y6.2293 I-2.4936 J1.3015
G3 X24.1048 Y6.6863 I-2.3118 J0.8297
G3 X24.1332 Y7.0591 I-2.4278 J0.3727
G3 X24.1313 Y7.1571 I-2.4562 J0
G3 X24.0664 Y7.6557 I-2.8106 J-0.1122
G3 X23.8819 Y7.7368 I-0.122 J-0.0271
G1 X22.7666 Y7.0929
G3 X22.7083 Y7.0169 I0.0625 J-0.1083
G2 X22.7051 Y7.0098 I-0.0241 J0.0065
G2 X22.6999 Y7.004 I-0.021 J0.0136
G2 X22.6931 Y7.0001 I-0.0157 J0.0194
G2 X22.6855 Y6.9984 I-0.009 J0.0233
G2 X22.6777 Y6.9993 I-0.0013 J0.025
G2 X22.6705 Y7.0024 I0.0065 J0.0241
G2 X22.6647 Y7.0077 I0.0136 J0.021
G2 X22.6608 Y7.0145 I0.0194 J0.0157
G2 X22.6592 Y7.0221 I0.0233 J0.009
G2 X22.6592 Y7.0234 I0.025 J0.0013
G2 X22.66 Y7.0299 I0.025 J0
G3 X22.6643 Y7.0623 I-0.1207 J0.0324
G3 X22.6475 Y7.1248 I-0.125 J0
G1 X22.1097 Y8.0564
G3 X22.0337 Y8.1146 I-0.1083 J-0.0625
G2 X22.0266 Y8.1178 I0.0065 J0.0241
G2 X22.0208 Y8.123 I0.0136 J0.021
G2 X22.0169 Y8.1298 I0.0194 J0.0157
G2 X22.0152 Y8.1375 I0.0233 J0.009
G2 X22.0152 Y8.1388 I0.025 J0.0013
G2 X22.0161 Y8.1452 I0.025 J0
G2 X22.0192 Y8.1524 I0.0241 J-0.0065
G2 X22.0245 Y8.1582 I0.021 J-0.0136
G2 X22.0313 Y8.1621 I0.0157 J-0.0194
G2 X22.0389 Y8.1637 I0.009 J-0.0233
G2 X22.0467 Y8.1629 I0.0013 J-0.025
G3 X22.1416 Y8.1754 I0.0324 J0.1207
G1 X22.608 Y8.4447
G1 X23.0411 Y8.6947
G1 X23.2569 Y8.8193
G3 X23.3194 Y8.9276 I-0.0625 J0.1083
G3 X23.2789 Y9.0197 I-0.125 J0
G3 X22.8795 Y9.3252 I-1.9018 J-2.0724
G3 X22.4586 Y9.5376 I-1.312 J-2.0764
G3 X22.0049 Y9.6657 I-0.8911 J-2.2889
G3 X21.504 Y9.7106 I-0.5008 J-2.7679
G3 X21.0032 Y9.6657 I0 J-2.8128
G3 X20.5495 Y9.5376 I0.4373 J-2.417
G3 X20.1286 Y9.3252 I0.8911 J-2.2889
G3 X19.7292 Y9.0197 I1.5025 J-2.3779
G3 X19.6887 Y8.9276 I0.0845 J-0.0921
G3 X19.7512 Y8.8193 I0.125 J0
G1 X19.9269 Y8.7179
G1 X20.3599 Y8.4679
G1 X20.8665 Y8.1754
G3 X20.9614 Y8.1629 I0.0625 J0.1083
G2 X20.9711 Y8.1635 I0.0065 J-0.0241
G2 X20.9804 Y8.1604 I-0.0033 J-0.0248
G2 X20.9877 Y8.154 I-0.0125 J-0.0217
G2 X20.992 Y8.1452 I-0.0198 J-0.0152
G2 X20.9929 Y8.1388 I-0.0241 J-0.0065
G2 X20.9926 Y8.1355 I-0.025 J0
G2 X20.9895 Y8.1263 I-0.0248 J0.0033
G2 X20.9831 Y8.1189 I-0.0217 J0.0125
G2 X20.9743 Y8.1146 I-0.0152 J0.0198
G3 X20.8984 Y8.0564 I0.0324 J-0.1207
G1 X20.3606 Y7.1248
G3 X20.3438 Y7.0623 I0.1083 J-0.0625
G3 X20.3481 Y7.0299 I0.125 J0
G2 X20.3489 Y7.0234 I-0.0241 J-0.0065
G2 X20.3487 Y7.0202 I-0.025 J0
G2 X20.3456 Y7.0109 I-0.0248 J0.0033
G2 X20.3391 Y7.0036 I-0.0217 J0.0125
G2 X20.3304 Y6.9993 I-0.0152 J0.0198
G2 X20.3207 Y6.9986 I-0.0065 J0.0241
G2 X20.3114 Y7.0018 I0.0033 J0.0248
G2 X20.3041 Y7.0082 I0.0125 J0.0217
G2 X20.2998 Y7.017 I0.0198 J0.0152
G3 X20.2415 Y7.0929 I-0.1207 J-0.0324
G1 X19.1262 Y7.7368
G3 X18.9417 Y7.6557 I-0.0625 J-0.1083
G3 X18.8768 Y7.1571 I2.7457 J-0.6108
G3 X18.8748 Y7.0591 I2.4542 J-0.098
G3 X18.9033 Y6.6863 I2.4562 J0
G3 X19.0192 Y6.2293 I2.4278 J0.3727
G3 X19.2307 Y5.7731 I2.6475 J0.9502
G3 X19.348 Y5.5873 I2.436 J1.4064
G3 X19.5201 Y5.3619 I2.3187 J1.5923
G3 X19.6669 Y5.2032 I1.8745 J1.5872
G3 X19.8579 Y5.033 I1.7276 J1.7459
G3 X20.2523 Y4.7747 I1.5367 J1.9161
G3 X20.7165 Y4.5815 I1.3081 J2.4901
G3 X20.879 Y4.7008 I0.0375 J0.1192
G1 X20.879 Y4.7008
G1 X20.879 Y5.9887
G3 X20.8424 Y6.077 I-0.125 J0
G2 X20.8378 Y6.0834 I0.0177 J0.0177
G2 X20.8354 Y6.0908 I0.0223 J0.0113
G2 X20.8351 Y6.0947 I0.0247 J0.0039
G2 X20.8354 Y6.0986 I0.025 J0
G2 X20.8378 Y6.1061 I0.0247 J-0.0039
G2 X20.8424 Y6.1124 I0.0223 J-0.0113
G2 X20.8488 Y6.117 I0.0177 J-0.0177
G2 X20.8562 Y6.1194 I0.0113 J-0.0223
G2 X20.864 Y6.1194 I0.0039 J-0.0247
G2 X20.8715 Y6.117 I-0.0039 J-0.0247
G2 X20.8778 Y6.1124 I-0.0113 J-0.0223
G3 X20.9662 Y6.0758 I0.0884 J0.0884
G1 X22.0419 Y6.0758
G3 X22.1303 Y6.1124 I0 J0.125
G2 X22.1384 Y6.1178 I0.0177 J-0.0177
G2 X22.148 Y6.1197 I0.0096 J-0.0231
G2 X22.1575 Y6.1178 I0 J-0.025
G2 X22.1657 Y6.1124 I-0.0096 J-0.0231
G2 X22.1711 Y6.1043 I-0.0177 J-0.0177
G2 X22.173 Y6.0947 I-0.0231 J-0.0096
G1 X22.173 Y6.0947
G2 X22.1711 Y6.0852 I-0.025 J0
G2 X22.1657 Y6.077 I-0.0231 J0.0096
G3 X22.129 Y5.9887 I0.0884 J-0.0884
G1 Z-0.4 F30
G1 X22.129 Y4.7008 F35
G1 X22.129 Y4.7008
G3 X22.2915 Y4.5815 I0.125 J0
G3 X22.7558 Y4.7747 I-0.8438 J2.6833
G3 X23.1502 Y5.033 I-1.1423 J2.1744
G3 X23.488 Y5.3619 I-1.5367 J1.9161
G3 X23.5656 Y5.4577 I-2.1466 J1.8177
G3 X23.7774 Y5.7731 I-2.2242 J1.7219
G3 X23.835 Y5.8781 I-2.436 J1.4064
G3 X23.9889 Y6.2293 I-2.4936 J1.3015
G3 X24.1048 Y6.6863 I-2.3118 J0.8297
G3 X24.1332 Y7.0591 I-2.4278 J0.3727
G3 X24.1313 Y7.1571 I-2.4562 J0
G3 X24.0664 Y7.6557 I-2.8106 J-0.1122
G3 X23.8819 Y7.7368 I-0.122 J-0.0271
G1 X22.7666 Y7.0929
G3 X22.7083 Y7.0169 I0.0625 J-0.1083
G2 X22.7051 Y7.0098 I-0.0241 J0.0065
G2 X22.6999 Y7.004 I-0.021 J0.0136
G2 X22.6931 Y7.0001 I-0.0157 J0.0194
G2 X22.6855 Y6.9984 I-0.009 J0.0233
G2 X22.6777 Y6.9993 I-0.0013 J0.025
G2 X22.6705 Y7.0024 I0.0065 J0.0241
G2 X22.6647 Y7.0077 I0.0136 J0.021
G2 X22.6608 Y7.0145 I0.0194 J0.0157
G2 X22.6592 Y7.0221 I0.0233 J0.009
G2 X22.6592 Y7.0234 I0.025 J0.0013
G2 X22.66 Y7.0299 I0.025 J0
G3 X22.6643 Y7.0623 I-0.1207 J0.0324
G3 X22.6475 Y7.1248 I-0.125 J0
G1 X22.1097 Y8.0564
G3 X22.0337 Y8.1146 I-0.1083 J-0.0625
G2 X22.0266 Y8.1178 I0.0065 J0.0241
G2 X22.0208 Y8.123 I0.0136 J0.021
G2 X22.0169 Y8.1298 I0.0194 J0.0157
G2 X22.0152 Y8.1375 I0.0233 J0.009
G2 X22.0152 Y8.1388 I0.025 J0.0013
G2 X22.0161 Y8.1452 I0.025 J0
G2 X22.0192 Y8.1524 I0.0241 J-0.0065
G2 X22.0245 Y8.1582 I0.021 J-0.0136
G2 X22.0313 Y8.1621 I0.0157 J-0.0194
G2 X22.0389 Y8.1637 I0.009 J-0.0233
G2 X22.0467 Y8.1629 I0.0013 J-0.025
G3 X22.1416 Y8.1754 I0.0324 J0.1207
G1 X22.608 Y8.4447
G1 X23.0411 Y8.6947
G1 X23.2569 Y8.8193
G3 X23.3194 Y8.9276 I-0.0625 J0.1083
G3 X23.2789 Y9.0197 I-0.125 J0
G3 X22.8795 Y9.3252 I-1.9018 J-2.0724
G3 X22.4586 Y9.5376 I-1.312 J-2.0764
G3 X22.0049 Y9.6657 I-0.8911 J-2.2889
G3 X21.504 Y9.7106 I-0.5008 J-2.7679
G3 X21.0032 Y9.6657 I0 J-2.8128
G3 X20.5495 Y9.5376 I0.4373 J-2.417
G3 X20.1286 Y9.3252 I0.8911 J-2.2889
G3 X19.7292 Y9.0197 I1.5025 J-2.3779
G3 X19.6887 Y8.9276 I0.0845 J-0.0921
G3 X19.7512 Y8.8193 I0.125 J0
G1 X19.9269 Y8.7179
G1 X20.3599 Y8.4679
G1 X20.8665 Y8.1754
G3 X20.9614 Y8.1629 I0.0625 J0.1083
G2 X20.9711 Y8.1635 I0.0065 J-0.0241
G2 X20.9804 Y8.1604 I-0.0033 J-0.0248
G2 X20.9877 Y8.154 I-0.0125 J-0.0217
G2 X20.992 Y8.1452 I-0.0198 J-0.0152
G2 X20.9929 Y8.1388 I-0.0241 J-0.0065
G2 X20.9926 Y8.1355 I-0.025 J0
G2 X20.9895 Y8.1263 I-0.0248 J0.0033
G2 X20.9831 Y8.1189 I-0.0217 J0.0125
G2 X20.9743 Y8.1146 I-0.0152 J0.0198
G3 X20.8984 Y8.0564 I0.0324 J-0.1207
G1 X20.3606 Y7.1248
G3 X20.3438 Y7.0623 I0.1083 J-0.0625
G3 X20.3481 Y7.0299 I0.125 J0
G2 X20.3489 Y7.0234 I-0.0241 J-0.0065
G2 X20.3487 Y7.0202 I-0.025 J0
G2 X20.3456 Y7.0109 I-0.0248 J0.0033
G2 X20.3391 Y7.0036 I-0.0217 J0.0125
G2 X20.3304 Y6.9993 I-0.0152 J0.0198
G2 X20.3207 Y6.9986 I-0.0065 J0.0241
G2 X20.3114 Y7.0018 I0.0033 J0.0248
G2 X20.3041 Y7.0082 I0.0125 J0.0217
G2 X20.2998 Y7.017 I0.0198 J0.0152
G3 X20.2415 Y7.0929 I-0.1207 J-0.0324
G1 X19.1262 Y7.7368
G3 X18.9417 Y7.6557 I-0.0625 J-0.1083
G3 X18.8768 Y7.1571 I2.7457 J-0.6108
G3 X18.8748 Y7.0591 I2.4542 J-0.098
G3 X18.9033 Y6.6863 I2.4562 J0
G3 X19.0192 Y6.2293 I2.4278 J0.3727
G3 X19.2307 Y5.7731 I2.6475 J0.9502
G3 X19.348 Y5.5873 I2.436 J1.4064
G3 X19.5201 Y5.3619 I2.3187 J1.5923
G3 X19.6669 Y5.2032 I1.8745 J1.5872
G3 X19.8579 Y5.033 I1.7276 J1.7459
G3 X20.2523 Y4.7747 I1.5367 J1.9161
G3 X20.7165 Y4.5815 I1.3081 J2.4901
G3 X20.879 Y4.7008 I0.0375 J0.1192
G1 X20.879 Y4.7008
G1 X20.879 Y5.9887
G3 X20.8424 Y6.077 I-0.125 J0
G2 X20.8378 Y6.0834 I0.0177 J0.0177
G2 X20.8354 Y6.0908 I0.0223 J0.0113
G2 X20.8351 Y6.0947 I0.0247 J0.0039
G2 X20.8354 Y6.0986 I0.025 J0
G2 X20.8378 Y6.1061 I0.0247 J-0.0039
G2 X20.8424 Y6.1124 I0.0223 J-0.0113
G2 X20.8488 Y6.117 I0.0177 J-0.0177
G2 X20.8562 Y6.1194 I0.0113 J-0.0223
G2 X20.864 Y6.1194 I0.0039 J-0.0247
G2 X20.8715 Y6.117 I-0.0039 J-0.0247
G2 X20.8778 Y6.1124 I-0.0113 J-0.0223
G3 X20.9662 Y6.0758 I0.0884 J0.0884
G1 X22.0419 Y6.0758
G3 X22.1303 Y6.1124 I0 J0.125
G2 X22.1384 Y6.1178 I0.0177 J-0.0177
G2 X22.148 Y6.1197 I0.0096 J-0.0231
G2 X22.1575 Y6.1178 I0 J-0.025
G2 X22.1657 Y6.1124 I-0.0096 J-0.0231
G2 X22.1711 Y6.1043 I-0.0177 J-0.0177
G2 X22.173 Y6.0947 I-0.0231 J-0.0096
G1 X22.173 Y6.0947
G2 X22.1711 Y6.0852 I-0.025 J0
G2 X22.1657 Y6.077 I-0.0231 J0.0096
G3 X22.129 Y5.9887 I0.0884 J-0.0884
G1 Z-0.5 F30
G1 X22.129 Y4.7008 F35
G1 X22.129 Y4.7008
G3 X22.2915 Y4.5815 I0.125 J0
G3 X22.7558 Y4.7747 I-0.8438 J2.6833
G3 X23.1502 Y5.033 I-1.1423 J2.1744
G3 X23.488 Y5.3619 I-1.5367 J1.9161
G3 X23.5656 Y5.4577 I-2.1466 J1.8177
G3 X23.7774 Y5.7731 I-2.2242 J1.7219
G3 X23.835 Y5.8781 I-2.436 J1.4064
G3 X23.9889 Y6.2293 I-2.4936 J1.3015
G3 X24.1048 Y6.6863 I-2.3118 J0.8297
G3 X24.1332 Y7.0591 I-2.4278 J0.3727
G3 X24.1313 Y7.1571 I-2.4562 J0
G3 X24.0664 Y7.6557 I-2.8106 J-0.1122
G3 X23.8819 Y7.7368 I-0.122 J-0.0271
G1 X22.7666 Y7.0929
G3 X22.7083 Y7.0169 I0.0625 J-0.1083
G2 X22.7051 Y7.0098 I-0.0241 J0.0065
G2 X22.6999 Y7.004 I-0.021 J0.0136
G2 X22.6931 Y7.0001 I-0.0157 J0.0194
G2 X22.6855 Y6.9984 I-0.009 J0.0233
G2 X22.6777 Y6.9993 I-0.0013 J0.025
G2 X22.6705 Y7.0024 I0.0065 J0.0241
G2 X22.6647 Y7.0077 I0.0136 J0.021
G2 X22.6608 Y7.0145 I0.0194 J0.0157
G2 X22.6592 Y7.0221 I0.0233 J0.009
G2 X22.6592 Y7.0234 I0.025 J0.0013
G2 X22.66 Y7.0299 I0.025 J0
G3 X22.6643 Y7.0623 I-0.1207 J0.0324
G3 X22.6475 Y7.1248 I-0.125 J0
G1 X22.1097 Y8.0564
G3 X22.0337 Y8.1146 I-0.1083 J-0.0625
G2 X22.0266 Y8.1178 I0.0065 J0.0241
G2 X22.0208 Y8.123 I0.0136 J0.021
G2 X22.0169 Y8.1298 I0.0194 J0.0157
G2 X22.0152 Y8.1375 I0.0233 J0.009
G2 X22.0152 Y8.1388 I0.025 J0.0013
G2 X22.0161 Y8.1452 I0.025 J0
G2 X22.0192 Y8.1524 I0.0241 J-0.0065
G2 X22.0245 Y8.1582 I0.021 J-0.0136
G2 X22.0313 Y8.1621 I0.0157 J-0.0194
G2 X22.0389 Y8.1637 I0.009 J-0.0233
G2 X22.0467 Y8.1629 I0.0013 J-0.025
G3 X22.1416 Y8.1754 I0.0324 J0.1207
G1 X22.608 Y8.4447
G1 X23.0411 Y8.6947
G1 X23.2569 Y8.8193
G3 X23.3194 Y8.9276 I-0.0625 J0.1083
G3 X23.2789 Y9.0197 I-0.125 J0
G3 X22.8795 Y9.3252 I-1.9018 J-2.0724
G3 X22.4586 Y9.5376 I-1.312 J-2.0764
G3 X22.0049 Y9.6657 I-0.8911 J-2.2889
G3 X21.504 Y9.7106 I-0.5008 J-2.7679
G3 X21.0032 Y9.6657 I0 J-2.8128
G3 X20.5495 Y9.5376 I0.4373 J-2.417
G3 X20.1286 Y9.3252 I0.8911 J-2.2889
G3 X19.7292 Y9.0197 I1.5025 J-2.3779
G3 X19.6887 Y8.9276 I0.0845 J-0.0921
G3 X19.7512 Y8.8193 I0.125 J0
G1 X19.9269 Y8.7179
G1 X20.3599 Y8.4679
G1 X20.8665 Y8.1754
G3 X20.9614 Y8.1629 I0.0625 J0.1083
G2 X20.9711 Y8.1635 I0.0065 J-0.0241
G2 X20.9804 Y8.1604 I-0.0033 J-0.0248
G2 X20.9877 Y8.154 I-0.0125 J-0.0217
G2 X20.992 Y8.1452 I-0.0198 J-0.0152
G2 X20.9929 Y8.1388 I-0.0241 J-0.0065
G2 X20.9926 Y8.1355 I-0.025 J0
G2 X20.9895 Y8.1263 I-0.0248 J0.0033
G2 X20.9831 Y8.1189 I-0.0217 J0.0125
G2 X20.9743 Y8.1146 I-0.0152 J0.0198
G3 X20.8984 Y8.0564 I0.0324 J-0.1207
G1 X20.3606 Y7.1248
G3 X20.3438 Y7.0623 I0.1083 J-0.0625
G3 X20.3481 Y7.0299 I0.125 J0
G2 X20.3489 Y7.0234 I-0.0241 J-0.0065
G2 X20.3487 Y7.0202 I-0.025 J0
G2 X20.3456 Y7.0109 I-0.0248 J0.0033
G2 X20.3391 Y7.0036 I-0.0217 J0.0125
G2 X20.3304 Y6.9993 I-0.0152 J0.0198
G2 X20.3207 Y6.9986 I-0.0065 J0.0241
G2 X20.3114 Y7.0018 I0.0033 J0.0248
G2 X20.3041 Y7.0082 I0.0125 J0.0217
G2 X20.2998 Y7.017 I0.0198 J0.0152
G3 X20.2415 Y7.0929 I-0.1207 J-0.0324
G1 X19.1262 Y7.7368
G3 X18.9417 Y7.6557 I-0.0625 J-0.1083
G3 X18.8768 Y7.1571 I2.7457 J-0.6108
G3 X18.8748 Y7.0591 I2.4542 J-0.098
G3 X18.9033 Y6.6863 I2.4562 J0
G3 X19.0192 Y6.2293 I2.4278 J0.3727
G3 X19.2307 Y5.7731 I2.6475 J0.9502
G3 X19.348 Y5.5873 I2.436 J1.4064
G3 X19.5201 Y5.3619 I2.3187 J1.5923
G3 X19.6669 Y5.2032 I1.8745 J1.5872
G3 X19.8579 Y5.033 I1.7276 J1.7459
G3 X20.2523 Y4.7747 I1.5367 J1.9161
G3 X20.7165 Y4.5815 I1.3081 J2.4901
G3 X20.879 Y4.7008 I0.0375 J0.1192
G1 X20.879 Y4.7008
G1 X20.879 Y5.9887
G3 X20.8424 Y6.077 I-0.125 J0
G2 X20.8378 Y6.0834 I0.0177 J0.0177
G2 X20.8354 Y6.0908 I0.0223 J0.0113
G2 X20.8351 Y6.0947 I0.0247 J0.0039
G2 X20.8354 Y6.0986 I0.025 J0
G2 X20.8378 Y6.1061 I0.0247 J-0.0039
G2 X20.8424 Y6.1124 I0.0223 J-0.0113
G2 X20.8488 Y6.117 I0.0177 J-0.0177
G2 X20.8562 Y6.1194 I0.0113 J-0.0223
G2 X20.864 Y6.1194 I0.0039 J-0.0247
G2 X20.8715 Y6.117 I-0.0039 J-0.0247
G2 X20.8778 Y6.1124 I-0.0113 J-0.0223
G3 X20.9662 Y6.0758 I0.0884 J0.0884
G1 X22.0419 Y6.0758
G3 X22.1303 Y6.1124 I0 J0.125
G2 X22.1384 Y6.1178 I0.0177 J-0.0177
G2 X22.148 Y6.1197 I0.0096 J-0.0231
G2 X22.1575 Y6.1178 I0 J-0.025
G2 X22.1657 Y6.1124 I-0.0096 J-0.0231
G2 X22.1711 Y6.1043 I-0.0177 J-0.0177
G2 X22.173 Y6.0947 I-0.0231 J-0.0096
G1 X22.173 Y6.0947
G2 X22.1711 Y6.0852 I-0.025 J0
G2 X22.1657 Y6.077 I-0.0231 J0.0096
G3 X22.129 Y5.9887 I0.0884 J-0.0884
G1 Z-0.6 F30
G1 X22.129 Y4.7008 F35
G1 X22.129 Y4.7008
G3 X22.2915 Y4.5815 I0.125 J0
G3 X22.7558 Y4.7747 I-0.8438 J2.6833
G3 X23.1502 Y5.033 I-1.1423 J2.1744
G3 X23.488 Y5.3619 I-1.5367 J1.9161
G3 X23.5656 Y5.4577 I-2.1466 J1.8177
G3 X23.7774 Y5.7731 I-2.2242 J1.7219
G3 X23.835 Y5.8781 I-2.436 J1.4064
G3 X23.9889 Y6.2293 I-2.4936 J1.3015
G3 X24.1048 Y6.6863 I-2.3118 J0.8297
G3 X24.1332 Y7.0591 I-2.4278 J0.3727
G3 X24.1313 Y7.1571 I-2.4562 J0
G3 X24.0664 Y7.6557 I-2.8106 J-0.1122
G3 X23.8819 Y7.7368 I-0.122 J-0.0271
G1 X22.7666 Y7.0929
G3 X22.7083 Y7.0169 I0.0625 J-0.1083
G2 X22.7051 Y7.0098 I-0.0241 J0.0065
G2 X22.6999 Y7.004 I-0.021 J0.0136
G2 X22.6931 Y7.0001 I-0.0157 J0.0194
G2 X22.6855 Y6.9984 I-0.009 J0.0233
G2 X22.6777 Y6.9993 I-0.0013 J0.025
G2 X22.6705 Y7.0024 I0.0065 J0.0241
G2 X22.6647 Y7.0077 I0.0136 J0.021
G2 X22.6608 Y7.0145 I0.0194 J0.0157
G2 X22.6592 Y7.0221 I0.0233 J0.009
G2 X22.6592 Y7.0234 I0.025 J0.0013
G2 X22.66 Y7.0299 I0.025 J0
G3 X22.6643 Y7.0623 I-0.1207 J0.0324
G3 X22.6475 Y7.1248 I-0.125 J0
G1 X22.1097 Y8.0564
G3 X22.0337 Y8.1146 I-0.1083 J-0.0625
G2 X22.0266 Y8.1178 I0.0065 J0.0241
G2 X22.0208 Y8.123 I0.0136 J0.021
G2 X22.0169 Y8.1298 I0.0194 J0.0157
G2 X22.0152 Y8.1375 I0.0233 J0.009
G2 X22.0152 Y8.1388 I0.025 J0.0013
G2 X22.0161 Y8.1452 I0.025 J0
G2 X22.0192 Y8.1524 I0.0241 J-0.0065
G2 X22.0245 Y8.1582 I0.021 J-0.0136
G2 X22.0313 Y8.1621 I0.0157 J-0.0194
G2 X22.0389 Y8.1637 I0.009 J-0.0233
G2 X22.0467 Y8.1629 I0.0013 J-0.025
G3 X22.1416 Y8.1754 I0.0324 J0.1207
G1 X22.608 Y8.4447
G1 X23.0411 Y8.6947
G1 X23.2569 Y8.8193
G3 X23.3194 Y8.9276 I-0.0625 J0.1083
G3 X23.2789 Y9.0197 I-0.125 J0
G3 X22.8795 Y9.3252 I-1.9018 J-2.0724
G3 X22.4586 Y9.5376 I-1.312 J-2.0764
G3 X22.0049 Y9.6657 I-0.8911 J-2.2889
G3 X21.504 Y9.7106 I-0.5008 J-2.7679
G3 X21.0032 Y9.6657 I0 J-2.8128
G3 X20.5495 Y9.5376 I0.4373 J-2.417
G3 X20.1286 Y9.3252 I0.8911 J-2.2889
G3 X19.7292 Y9.0197 I1.5025 J-2.3779
G3 X19.6887 Y8.9276 I0.0845 J-0.0921
G3 X19.7512 Y8.8193 I0.125 J0
G1 X19.9269 Y8.7179
G1 X20.3599 Y8.4679
G1 X20.8665 Y8.1754
G3 X20.9614 Y8.1629 I0.0625 J0.1083
G2 X20.9711 Y8.1635 I0.0065 J-0.0241
G2 X20.9804 Y8.1604 I-0.0033 J-0.0248
G2 X20.9877 Y8.154 I-0.0125 J-0.0217
G2 X20.992 Y8.1452 I-0.0198 J-0.0152
G2 X20.9929 Y8.1388 I-0.0241 J-0.0065
G2 X20.9926 Y8.1355 I-0.025 J0
G2 X20.9895 Y8.1263 I-0.0248 J0.0033
G2 X20.9831 Y8.1189 I-0.0217 J0.0125
G2 X20.9743 Y8.1146 I-0.0152 J0.0198
G3 X20.8984 Y8.0564 I0.0324 J-0.1207
G1 X20.3606 Y7.1248
G3 X20.3438 Y7.0623 I0.1083 J-0.0625
G3 X20.3481 Y7.0299 I0.125 J0
G2 X20.3489 Y7.0234 I-0.0241 J-0.0065
G2 X20.3487 Y7.0202 I-0.025 J0
G2 X20.3456 Y7.0109 I-0.0248 J0.0033
G2 X20.3391 Y7.0036 I-0.0217 J0.0125
G2 X20.3304 Y6.9993 I-0.0152 J0.0198
G2 X20.3207 Y6.9986 I-0.0065 J0.0241
G2 X20.3114 Y7.0018 I0.0033 J0.0248
G2 X20.3041 Y7.0082 I0.0125 J0.0217
G2 X20.2998 Y7.017 I0.0198 J0.0152
G3 X20.2415 Y7.0929 I-0.1207 J-0.0324
G1 X19.1262 Y7.7368
G3 X18.9417 Y7.6557 I-0.0625 J-0.1083
G3 X18.8768 Y7.1571 I2.7457 J-0.6108
G3 X18.8748 Y7.0591 I2.4542 J-0.098
G3 X18.9033 Y6.6863 I2.4562 J0
G3 X19.0192 Y6.2293 I2.4278 J0.3727
G3 X19.2307 Y5.7731 I2.6475 J0.9502
G3 X19.348 Y5.5873 I2.436 J1.4064
G3 X19.5201 Y5.3619 I2.3187 J1.5923
G3 X19.6669 Y5.2032 I1.8745 J1.5872
G3 X19.8579 Y5.033 I1.7276 J1.7459
G3 X20.2523 Y4.7747 I1.5367 J1.9161
G3 X20.7165 Y4.5815 I1.3081 J2.4901
G3 X20.879 Y4.7008 I0.0375 J0.1192
G1 X20.879 Y4.7008
G1 X20.879 Y5.9887
G3 X20.8424 Y6.077 I-0.125 J0
G2 X20.8378 Y6.0834 I0.0177 J0.0177
G2 X20.8354 Y6.0908 I0.0223 J0.0113
G2 X20.8351 Y6.0947 I0.0247 J0.0039
G2 X20.8354 Y6.0986 I0.025 J0
G2 X20.8378 Y6.1061 I0.0247 J-0.0039
G2 X20.8424 Y6.1124 I0.0223 J-0.0113
G2 X20.8488 Y6.117 I0.0177 J-0.0177
G2 X20.8562 Y6.1194 I0.0113 J-0.0223
G2 X20.864 Y6.1194 I0.0039 J-0.0247
G2 X20.8715 Y6.117 I-0.0039 J-0.0247
G2 X20.8778 Y6.1124 I-0.0113 J-0.0223
G3 X20.9662 Y6.0758 I0.0884 J0.0884
G1 X22.0419 Y6.0758
G3 X22.1303 Y6.1124 I0 J0.125
G2 X22.1384 Y6.1178 I0.0177 J-0.0177
G2 X22.148 Y6.1197 I0.0096 J-0.0231
G2 X22.1575 Y6.1178 I0 J-0.025
G2 X22.1657 Y6.1124 I-0.0096 J-0.0231
G2 X22.1711 Y6.1043 I-0.0177 J-0.0177
G2 X22.173 Y6.0947 I-0.0231 J-0.0096
G1 X22.173 Y6.0947
G2 X22.1711 Y6.0852 I-0.025 J0
G2 X22.1657 Y6.077 I-0.0231 J0.0096
G3 X22.129 Y5.9887 I0.0884 J-0.0884
G1 Z-0.7 F30
G1 X22.129 Y4.7008 F35
G1 X22.129 Y4.7008
G3 X22.2915 Y4.5815 I0.125 J0
G3 X22.7558 Y4.7747 I-0.8438 J2.6833
G3 X23.1502 Y5.033 I-1.1423 J2.1744
G3 X23.488 Y5.3619 I-1.5367 J1.9161
G3 X23.5656 Y5.4577 I-2.1466 J1.8177
G1 Z-0.6 F30
G3 X23.7774 Y5.7731 I-2.2242 J1.7219 F35
G3 X23.835 Y5.8781 I-2.436 J1.4064
G1 Z-0.7 F30
G3 X23.9889 Y6.2293 I-2.4936 J1.3015 F35
G3 X24.1048 Y6.6863 I-2.3118 J0.8297
G3 X24.1332 Y7.0591 I-2.4278 J0.3727
G3 X24.1313 Y7.1571 I-2.4562 J0
G3 X24.0664 Y7.6557 I-2.8106 J-0.1122
G3 X23.8819 Y7.7368 I-0.122 J-0.0271
G1 X22.7666 Y7.0929
G3 X22.7083 Y7.0169 I0.0625 J-0.1083
G2 X22.7051 Y7.0098 I-0.0241 J0.0065
G2 X22.6999 Y7.004 I-0.021 J0.0136
G2 X22.6931 Y7.0001 I-0.0157 J0.0194
G2 X22.6855 Y6.9984 I-0.009 J0.0233
G2 X22.6777 Y6.9993 I-0.0013 J0.025
G2 X22.6705 Y7.0024 I0.0065 J0.0241
G2 X22.6647 Y7.0077 I0.0136 J0.021
G2 X22.6608 Y7.0145 I0.0194 J0.0157
G2 X22.6592 Y7.0221 I0.0233 J0.009
G2 X22.6592 Y7.0234 I0.025 J0.0013
G2 X22.66 Y7.0299 I0.025 J0
G3 X22.6643 Y7.0623 I-0.1207 J0.0324
G3 X22.6475 Y7.1248 I-0.125 J0
G1 X22.1097 Y8.0564
G3 X22.0337 Y8.1146 I-0.1083 J-0.0625
G2 X22.0266 Y8.1178 I0.0065 J0.0241
G2 X22.0208 Y8.123 I0.0136 J0.021
G2 X22.0169 Y8.1298 I0.0194 J0.0157
G2 X22.0152 Y8.1375 I0.0233 J0.009
G2 X22.0152 Y8.1388 I0.025 J0.0013
G2 X22.0161 Y8.1452 I0.025 J0
G2 X22.0192 Y8.1524 I0.0241 J-0.0065
G2 X22.0245 Y8.1582 I0.021 J-0.0136
G2 X22.0313 Y8.1621 I0.0157 J-0.0194
G2 X22.0389 Y8.1637 I0.009 J-0.0233
G2 X22.0467 Y8.1629 I0.0013 J-0.025
G3 X22.1416 Y8.1754 I0.0324 J0.1207
G1 X22.608 Y8.4447
G1 Z-0.6 F30
G1 X23.0411 Y8.6947 F35
G1 Z-0.7 F30
G1 X23.2569 Y8.8193 F35
G3 X23.3194 Y8.9276 I-0.0625 J0.1083
G3 X23.2789 Y9.0197 I-0.125 J0
G3 X22.8795 Y9.3252 I-1.9018 J-2.0724
G3 X22.4586 Y9.5376 I-1.312 J-2.0764
G3 X22.0049 Y9.6657 I-0.8911 J-2.2889
G3 X21.504 Y9.7106 I-0.5008 J-2.7679
G3 X21.0032 Y9.6657 I0 J-2.8128
G3 X20.5495 Y9.5376 I0.4373 J-2.417
G3 X20.1286 Y9.3252 I0.8911 J-2.2889
G3 X19.7292 Y9.0197 I1.5025 J-2.3779
G3 X19.6887 Y8.9276 I0.0845 J-0.0921
G3 X19.7512 Y8.8193 I0.125 J0
G1 X19.9269 Y8.7179
G1 Z-0.6 F30
G1 X20.3599 Y8.4679 F35
G1 Z-0.7 F30
G1 X20.8665 Y8.1754 F35
G3 X20.9614 Y8.1629 I0.0625 J0.1083
G2 X20.9711 Y8.1635 I0.0065 J-0.0241
G2 X20.9804 Y8.1604 I-0.0033 J-0.0248
G2 X20.9877 Y8.154 I-0.0125 J-0.0217
G2 X20.992 Y8.1452 I-0.0198 J-0.0152
G2 X20.9929 Y8.1388 I-0.0241 J-0.0065
G2 X20.9926 Y8.1355 I-0.025 J0
G2 X20.9895 Y8.1263 I-0.0248 J0.0033
G2 X20.9831 Y8.1189 I-0.0217 J0.0125
G2 X20.9743 Y8.1146 I-0.0152 J0.0198
G3 X20.8984 Y8.0564 I0.0324 J-0.1207
G1 X20.3606 Y7.1248
G3 X20.3438 Y7.0623 I0.1083 J-0.0625
G3 X20.3481 Y7.0299 I0.125 J0
G2 X20.3489 Y7.0234 I-0.0241 J-0.0065
G2 X20.3487 Y7.0202 I-0.025 J0
G2 X20.3456 Y7.0109 I-0.0248 J0.0033
G2 X20.3391 Y7.0036 I-0.0217 J0.0125
G2 X20.3304 Y6.9993 I-0.0152 J0.0198
G2 X20.3207 Y6.9986 I-0.0065 J0.0241
G2 X20.3114 Y7.0018 I0.0033 J0.0248
G2 X20.3041 Y7.0082 I0.0125 J0.0217
G2 X20.2998 Y7.017 I0.0198 J0.0152
G3 X20.2415 Y7.0929 I-0.1207 J-0.0324
G1 X19.1262 Y7.7368
G3 X18.9417 Y7.6557 I-0.0625 J-0.1083
G3 X18.8768 Y7.1571 I2.7457 J-0.6108
G3 X18.8748 Y7.0591 I2.4542 J-0.098
G3 X18.9033 Y6.6863 I2.4562 J0
G3 X19.0192 Y6.2293 I2.4278 J0.3727
G3 X19.2307 Y5.7731 I2.6475 J0.9502
G3 X19.348 Y5.5873 I2.436 J1.4064
G1 Z-0.6 F30
G3 X19.5201 Y5.3619 I2.3187 J1.5923 F35
G3 X19.6669 Y5.2032 I1.8745 J1.5872
G1 Z-0.7 F30
G3 X19.8579 Y5.033 I1.7276 J1.7459 F35
G3 X20.2523 Y4.7747 I1.5367 J1.9161
G3 X20.7165 Y4.5815 I1.3081 J2.4901
G3 X20.879 Y4.7008 I0.0375 J0.1192
G1 X20.879 Y4.7008
G1 X20.879 Y5.9887
G3 X20.8424 Y6.077 I-0.125 J0
G2 X20.8378 Y6.0834 I0.0177 J0.0177
G2 X20.8354 Y6.0908 I0.0223 J0.0113
G2 X20.8351 Y6.0947 I0.0247 J0.0039
G2 X20.8354 Y6.0986 I0.025 J0
G2 X20.8378 Y6.1061 I0.0247 J-0.0039
G2 X20.8424 Y6.1124 I0.0223 J-0.0113
G2 X20.8488 Y6.117 I0.0177 J-0.0177
G2 X20.8562 Y6.1194 I0.0113 J-0.0223
G2 X20.864 Y6.1194 I0.0039 J-0.0247
G2 X20.8715 Y6.117 I-0.0039 J-0.0247
G2 X20.8778 Y6.1124 I-0.0113 J-0.0223
G3 X20.9662 Y6.0758 I0.0884 J0.0884
G1 X22.0419 Y6.0758
G3 X22.1303 Y6.1124 I0 J0.125
G2 X22.1384 Y6.1178 I0.0177 J-0.0177
G2 X22.148 Y6.1197 I0.0096 J-0.0231
G2 X22.1575 Y6.1178 I0 J-0.025
G2 X22.1657 Y6.1124 I-0.0096 J-0.0231
G2 X22.1711 Y6.1043 I-0.0177 J-0.0177
G2 X22.173 Y6.0947 I-0.0231 J-0.0096
G1 X22.173 Y6.0947
G2 X22.1711 Y6.0852 I-0.025 J0
G2 X22.1657 Y6.077 I-0.0231 J0.0096
G3 X22.129 Y5.9887 I0.0884 J-0.0884
G1 Z-0.8 F30
G1 X22.129 Y4.7008 F35
G1 X22.129 Y4.7008
G3 X22.2915 Y4.5815 I0.125 J0
G3 X22.7558 Y4.7747 I-0.8438 J2.6833
G3 X23.1502 Y5.033 I-1.1423 J2.1744
G3 X23.488 Y5.3619 I-1.5367 J1.9161
G3 X23.5656 Y5.4577 I-2.1466 J1.8177
G1 Z-0.6 F30
G3 X23.7774 Y5.7731 I-2.2242 J1.7219 F35
G3 X23.835 Y5.8781 I-2.436 J1.4064
G1 Z-0.8 F30
G3 X23.9889 Y6.2293 I-2.4936 J1.3015 F35
G3 X24.1048 Y6.6863 I-2.3118 J0.8297
G3 X24.1332 Y7.0591 I-2.4278 J0.3727
G3 X24.1313 Y7.1571 I-2.4562 J0
G3 X24.0664 Y7.6557 I-2.8106 J-0.1122
G3 X23.8819 Y7.7368 I-0.122 J-0.0271
G1 X22.7666 Y7.0929
G3 X22.7083 Y7.0169 I0.0625 J-0.1083
G2 X22.7051 Y7.0098 I-0.0241 J0.0065
G2 X22.6999 Y7.004 I-0.021 J0.0136
G2 X22.6931 Y7.0001 I-0.0157 J0.0194
G2 X22.6855 Y6.9984 I-0.009 J0.0233
G2 X22.6777 Y6.9993 I-0.0013 J0.025
G2 X22.6705 Y7.0024 I0.0065 J0.0241
G2 X22.6647 Y7.0077 I0.0136 J0.021
G2 X22.6608 Y7.0145 I0.0194 J0.0157
G2 X22.6592 Y7.0221 I0.0233 J0.009
G2 X22.6592 Y7.0234 I0.025 J0.0013
G2 X22.66 Y7.0299 I0.025 J0
G3 X22.6643 Y7.0623 I-0.1207 J0.0324
G3 X22.6475 Y7.1248 I-0.125 J0
G1 X22.1097 Y8.0564
G3 X22.0337 Y8.1146 I-0.1083 J-0.0625
G2 X22.0266 Y8.1178 I0.0065 J0.0241
G2 X22.0208 Y8.123 I0.0136 J0.021
G2 X22.0169 Y8.1298 I0.0194 J0.0157
G2 X22.0152 Y8.1375 I0.0233 J0.009
G2 X22.0152 Y8.1388 I0.025 J0.0013
G2 X22.0161 Y8.1452 I0.025 J0
G2 X22.0192 Y8.1524 I0.0241 J-0.0065
G2 X22.0245 Y8.1582 I0.021 J-0.0136
G2 X22.0313 Y8.1621 I0.0157 J-0.0194
G2 X22.0389 Y8.1637 I0.009 J-0.0233
G2 X22.0467 Y8.1629 I0.0013 J-0.025
G3 X22.1416 Y8.1754 I0.0324 J0.1207
G1 X22.608 Y8.4447
G1 Z-0.6 F30
G1 X23.0411 Y8.6947 F35
G1 Z-0.8 F30
G1 X23.2569 Y8.8193 F35
G3 X23.3194 Y8.9276 I-0.0625 J0.1083
G3 X23.2789 Y9.0197 I-0.125 J0
G3 X22.8795 Y9.3252 I-1.9018 J-2.0724
G3 X22.4586 Y9.5376 I-1.312 J-2.0764
G3 X22.0049 Y9.6657 I-0.8911 J-2.2889
G3 X21.504 Y9.7106 I-0.5008 J-2.7679
G3 X21.0032 Y9.6657 I0 J-2.8128
G3 X20.5495 Y9.5376 I0.4373 J-2.417
G3 X20.1286 Y9.3252 I0.8911 J-2.2889
G3 X19.7292 Y9.0197 I1.5025 J-2.3779
G3 X19.6887 Y8.9276 I0.0845 J-0.0921
G3 X19.7512 Y8.8193 I0.125 J0
G1 X19.9269 Y8.7179
G1 Z-0.6 F30
G1 X20.3599 Y8.4679 F35
G1 Z-0.8 F30
G1 X20.8665 Y8.1754 F35
G3 X20.9614 Y8.1629 I0.0625 J0.1083
G2 X20.9711 Y8.1635 I0.0065 J-0.0241
G2 X20.9804 Y8.1604 I-0.0033 J-0.0248
G2 X20.9877 Y8.154 I-0.0125 J-0.0217
G2 X20.992 Y8.1452 I-0.0198 J-0.0152
G2 X20.9929 Y8.1388 I-0.0241 J-0.0065
G2 X20.9926 Y8.1355 I-0.025 J0
G2 X20.9895 Y8.1263 I-0.0248 J0.0033
G2 X20.9831 Y8.1189 I-0.0217 J0.0125
G2 X20.9743 Y8.1146 I-0.0152 J0.0198
G3 X20.8984 Y8.0564 I0.0324 J-0.1207
G1 X20.3606 Y7.1248
G3 X20.3438 Y7.0623 I0.1083 J-0.0625
G3 X20.3481 Y7.0299 I0.125 J0
G2 X20.3489 Y7.0234 I-0.0241 J-0.0065
G2 X20.3487 Y7.0202 I-0.025 J0
G2 X20.3456 Y7.0109 I-0.0248 J0.0033
G2 X20.3391 Y7.0036 I-0.0217 J0.0125
G2 X20.3304 Y6.9993 I-0.0152 J0.0198
G2 X20.3207 Y6.9986 I-0.0065 J0.0241
G2 X20.3114 Y7.0018 I0.0033 J0.0248
G2 X20.3041 Y7.0082 I0.0125 J0.0217
G2 X20.2998 Y7.017 I0.0198 J0.0152
G3 X20.2415 Y7.0929 I-0.1207 J-0.0324
G1 X19.1262 Y7.7368
G3 X18.9417 Y7.6557 I-0.0625 J-0.1083
G3 X18.8768 Y7.1571 I2.7457 J-0.6108
G3 X18.8748 Y7.0591 I2.4542 J-0.098
G3 X18.9033 Y6.6863 I2.4562 J0
G3 X19.0192 Y6.2293 I2.4278 J0.3727
G3 X19.2307 Y5.7731 I2.6475 J0.9502
G3 X19.348 Y5.5873 I2.436 J1.4064
G1 Z-0.6 F30
G3 X19.5201 Y5.3619 I2.3187 J1.5923 F35
G3 X19.6669 Y5.2032 I1.8745 J1.5872
G1 Z-0.8 F30
G3 X19.8579 Y5.033 I1.7276 J1.7459 F35
G3 X20.2523 Y4.7747 I1.5367 J1.9161
G3 X20.7165 Y4.5815 I1.3081 J2.4901
G3 X20.879 Y4.7008 I0.0375 J0.1192
G1 X20.879 Y4.7008
G1 X20.879 Y5.9887
G3 X20.8424 Y6.077 I-0.125 J0
G2 X20.8378 Y6.0834 I0.0177 J0.0177
G2 X20.8354 Y6.0908 I0.0223 J0.0113
G2 X20.8351 Y6.0947 I0.0247 J0.0039
G2 X20.8354 Y6.0986 I0.025 J0
G2 X20.8378 Y6.1061 I0.0247 J-0.0039
G2 X20.8424 Y6.1124 I0.0223 J-0.0113
G2 X20.8488 Y6.117 I0.0177 J-0.0177
G2 X20.8562 Y6.1194 I0.0113 J-0.0223
G2 X20.864 Y6.1194 I0.0039 J-0.0247
G2 X20.8715 Y6.117 I-0.0039 J-0.0247
G2 X20.8778 Y6.1124 I-0.0113 J-0.0223
G3 X20.9662 Y6.0758 I0.0884 J0.0884
G1 X22.0419 Y6.0758
G3 X22.1303 Y6.1124 I0 J0.125
G2 X22.1384 Y6.1178 I0.0177 J-0.0177
G2 X22.148 Y6.1197 I0.0096 J-0.0231
G2 X22.1575 Y6.1178 I0 J-0.025
G2 X22.1657 Y6.1124 I-0.0096 J-0.0231
G2 X22.1711 Y6.1043 I-0.0177 J-0.0177
G2 X22.173 Y6.0947 I-0.0231 J-0.0096
G1 X22.173 Y6.0947
G2 X22.1711 Y6.0852 I-0.025 J0
G2 X22.1657 Y6.077 I-0.0231 J0.0096
G3 X22.129 Y5.9887 I0.0884 J-0.0884
G1 Z-0.85 F30
G1 X22.129 Y4.7008 F35
G1 X22.129 Y4.7008
G3 X22.2915 Y4.5815 I0.125 J0
G3 X22.7558 Y4.7747 I-0.8438 J2.6833
G3 X23.1502 Y5.033 I-1.1423 J2.1744
G3 X23.488 Y5.3619 I-1.5367 J1.9161
G3 X23.5656 Y5.4577 I-2.1466 J1.8177
G1 Z-0.6 F30
G3 X23.7774 Y5.7731 I-2.2242 J1.7219 F35
G3 X23.835 Y5.8781 I-2.436 J1.4064
G1 Z-0.85 F30
G3 X23.9889 Y6.2293 I-2.4936 J1.3015 F35
G3 X24.1048 Y6.6863 I-2.3118 J0.8297
G3 X24.1332 Y7.0591 I-2.4278 J0.3727
G3 X24.1313 Y7.1571 I-2.4562 J0
G3 X24.0664 Y7.6557 I-2.8106 J-0.1122
G3 X23.8819 Y7.7368 I-0.122 J-0.0271
G1 X22.7666 Y7.0929
G3 X22.7083 Y7.0169 I0.0625 J-0.1083
G2 X22.7051 Y7.0098 I-0.0241 J0.0065
G2 X22.6999 Y7.004 I-0.021 J0.0136
G2 X22.6931 Y7.0001 I-0.0157 J0.0194
G2 X22.6855 Y6.9984 I-0.009 J0.0233
G2 X22.6777 Y6.9993 I-0.0013 J0.025
G2 X22.6705 Y7.0024 I0.0065 J0.0241
G2 X22.6647 Y7.0077 I0.0136 J0.021
G2 X22.6608 Y7.0145 I0.0194 J0.0157
G2 X22.6592 Y7.0221 I0.0233 J0.009
G2 X22.6592 Y7.0234 I0.025 J0.0013
G2 X22.66 Y7.0299 I0.025 J0
G3 X22.6643 Y7.0623 I-0.1207 J0.0324
G3 X22.6475 Y7.1248 I-0.125 J0
G1 X22.1097 Y8.0564
G3 X22.0337 Y8.1146 I-0.1083 J-0.0625
G2 X22.0266 Y8.1178 I0.0065 J0.0241
G2 X22.0208 Y8.123 I0.0136 J0.021
G2 X22.0169 Y8.1298 I0.0194 J0.0157
G2 X22.0152 Y8.1375 I0.0233 J0.009
G2 X22.0152 Y8.1388 I0.025 J0.0013
G2 X22.0161 Y8.1452 I0.025 J0
G2 X22.0192 Y8.1524 I0.0241 J-0.0065
G2 X22.0245 Y8.1582 I0.021 J-0.0136
G2 X22.0313 Y8.1621 I0.0157 J-0.0194
G2 X22.0389 Y8.1637 I0.009 J-0.0233
G2 X22.0467 Y8.1629 I0.0013 J-0.025
G3 X22.1416 Y8.1754 I0.0324 J0.1207
G1 X22.608 Y8.4447
G1 Z-0.6 F30
G1 X23.0411 Y8.6947 F35
G1 Z-0.85 F30
G1 X23.2569 Y8.8193 F35
G3 X23.3194 Y8.9276 I-0.0625 J0.1083
G3 X23.2789 Y9.0197 I-0.125 J0
G3 X22.8795 Y9.3252 I-1.9018 J-2.0724
G3 X22.4586 Y9.5376 I-1.312 J-2.0764
G3 X22.0049 Y9.6657 I-0.8911 J-2.2889
G3 X21.504 Y9.7106 I-0.5008 J-2.7679
G3 X21.0032 Y9.6657 I0 J-2.8128
G3 X20.5495 Y9.5376 I0.4373 J-2.417
G3 X20.1286 Y9.3252 I0.8911 J-2.2889
G3 X19.7292 Y9.0197 I1.5025 J-2.3779
G3 X19.6887 Y8.9276 I0.0845 J-0.0921
G3 X19.7512 Y8.8193 I0.125 J0
G1 X19.9269 Y8.7179
G1 Z-0.6 F30
G1 X20.3599 Y8.4679 F35
G1 Z-0.85 F30
G1 X20.8665 Y8.1754 F35
G3 X20.9614 Y8.1629 I0.0625 J0.1083
G2 X20.9711 Y8.1635 I0.0065 J-0.0241
G2 X20.9804 Y8.1604 I-0.0033 J-0.0248
G2 X20.9877 Y8.154 I-0.0125 J-0.0217
G2 X20.992 Y8.1452 I-0.0198 J-0.0152
G2 X20.9929 Y8.1388 I-0.0241 J-0.0065
G2 X20.9926 Y8.1355 I-0.025 J0
G2 X20.9895 Y8.1263 I-0.0248 J0.0033
G2 X20.9831 Y8.1189 I-0.0217 J0.0125
G2 X20.9743 Y8.1146 I-0.0152 J0.0198
G3 X20.8984 Y8.0564 I0.0324 J-0.1207
G1 X20.3606 Y7.1248
G3 X20.3438 Y7.0623 I0.1083 J-0.0625
G3 X20.3481 Y7.0299 I0.125 J0
G2 X20.3489 Y7.0234 I-0.0241 J-0.0065
G2 X20.3487 Y7.0202 I-0.025 J0
G2 X20.3456 Y7.0109 I-0.0248 J0.0033
G2 X20.3391 Y7.0036 I-0.0217 J0.0125
G2 X20.3304 Y6.9993 I-0.0152 J0.0198
G2 X20.3207 Y6.9986 I-0.0065 J0.0241
G2 X20.3114 Y7.0018 I0.0033 J0.0248
G2 X20.3041 Y7.0082 I0.0125 J0.0217
G2 X20.2998 Y7.017 I0.0198 J0.0152
G3 X20.2415 Y7.0929 I-0.1207 J-0.0324
G1 X19.1262 Y7.7368
G3 X18.9417 Y7.6557 I-0.0625 J-0.1083
G3 X18.8768 Y7.1571 I2.7457 J-0.6108
G3 X18.8748 Y7.0591 I2.4542 J-0.098
G3 X18.9033 Y6.6863 I2.4562 J0
G3 X19.0192 Y6.2293 I2.4278 J0.3727
G3 X19.2307 Y5.7731 I2.6475 J0.9502
G3 X19.348 Y5.5873 I2.436 J1.4064
G1 Z-0.6 F30
G3 X19.5201 Y5.3619 I2.3187 J1.5923 F35
G3 X19.6669 Y5.2032 I1.8745 J1.5872
G1 Z-0.85 F30
G3 X19.8579 Y5.033 I1.7276 J1.7459 F35
G3 X20.2523 Y4.7747 I1.5367 J1.9161
G3 X20.7165 Y4.5815 I1.3081 J2.4901
G3 X20.879 Y4.7008 I0.0375 J0.1192
G1 X20.879 Y4.7008
G1 X20.879 Y5.9887
G3 X20.8424 Y6.077 I-0.125 J0
G2 X20.8378 Y6.0834 I0.0177 J0.0177
G2 X20.8354 Y6.0908 I0.0223 J0.0113
G2 X20.8351 Y6.0947 I0.0247 J0.0039
G2 X20.8354 Y6.0986 I0.025 J0
G2 X20.8378 Y6.1061 I0.0247 J-0.0039
G2 X20.8424 Y6.1124 I0.0223 J-0.0113
G2 X20.8488 Y6.117 I0.0177 J-0.0177
G2 X20.8562 Y6.1194 I0.0113 J-0.0223
G2 X20.864 Y6.1194 I0.0039 J-0.0247
G2 X20.8715 Y6.117 I-0.0039 J-0.0247
G2 X20.8778 Y6.1124 I-0.0113 J-0.0223
G3 X20.9662 Y6.0758 I0.0884 J0.0884
G1 X22.0419 Y6.0758
G3 X22.1303 Y6.1124 I0 J0.125
G2 X22.1384 Y6.1178 I0.0177 J-0.0177
G2 X22.148 Y6.1197 I0.0096 J-0.0231
G2 X22.1575 Y6.1178 I0 J-0.025
G2 X22.1657 Y6.1124 I-0.0096 J-0.0231
G2 X22.1711 Y6.1043 I-0.0177 J-0.0177
G2 X22.173 Y6.0947 I-0.0231 J-0.0096
G1 X22.173 Y6.0947
G2 X22.1711 Y6.0852 I-0.025 J0
G2 X22.1657 Y6.077 I-0.0231 J0.0096
G3 X22.129 Y5.9887 I0.0884 J-0.0884

(Cut Big Parts)
G0 Z0.15
G0 X33.8276 Y10.9929
G1 Z-0.1 F30
G1 X31.4456 Y10.9929 F60
G1 X30.9456 Y10.9929
G1 X17.1937 Y10.9929
G3 X17.1409 Y10.9812 I0 J-0.125
G1 X16.4273 Y10.6484
G3 X16.3551 Y10.5351 I0.0528 J-0.1133
G3 X16.3668 Y10.4823 I0.125 J0
G1 X17.1258 Y8.8547
G1 X17.3371 Y8.4015
G1 X18.0306 Y6.9142
G3 X18.1968 Y6.8537 I0.1133 J0.0528
G1 X18.4601 Y6.9765
G3 X18.5938 Y7.0746 I-0.1796 J0.3852
G3 X18.6798 Y7.2163 I-0.3133 J0.2871
G3 X18.7055 Y7.3617 I-0.3994 J0.1454
G3 X18.7051 Y7.3802 I-0.425 J0
G3 X18.6657 Y7.5413 I-0.4246 J-0.0185
G1 X17.7478 Y9.5097
G2 X17.7323 Y9.5659 I0.1586 J0.074
G2 X17.7314 Y9.5837 I0.1741 J0.0178
G2 X17.7361 Y9.624 I0.175 J0
G2 X17.7588 Y9.6777 I0.1703 J-0.0404
G2 X17.7978 Y9.7209 I0.1476 J-0.094
G2 X17.8489 Y9.749 I0.1085 J-0.1373
G2 X17.9064 Y9.7587 I0.0575 J-0.1653
G1 X31.59 Y9.7587
G1 X32.09 Y9.7587
G1 X33.8276 Y9.7587
G3 X34.0183 Y9.7889 I0 J0.6171
G3 X34.1903 Y9.8765 I-0.1907 J0.5869
G3 X34.3268 Y10.013 I-0.3627 J0.4993
G3 X34.4145 Y10.1851 I-0.4993 J0.3627
G3 X34.4447 Y10.3758 I-0.5869 J0.1907
G1 X34.4447 Y10.3758
G3 X34.4145 Y10.5665 I-0.6171 J0
G3 X34.3268 Y10.7385 I-0.5869 J-0.1907
G3 X34.1903 Y10.8751 I-0.4993 J-0.3627
G3 X34.0183 Y10.9627 I-0.3627 J-0.4993
G3 X33.8276 Y10.9929 I-0.1907 J-0.5869
G1 Z-0.2 F30
G1 X31.4456 Y10.9929 F60
G1 X30.9456 Y10.9929
G1 X17.1937 Y10.9929
G3 X17.1409 Y10.9812 I0 J-0.125
G1 X16.4273 Y10.6484
G3 X16.3551 Y10.5351 I0.0528 J-0.1133
G3 X16.3668 Y10.4823 I0.125 J0
G1 X17.1258 Y8.8547
G1 X17.3371 Y8.4015
G1 X18.0306 Y6.9142
G3 X18.1968 Y6.8537 I0.1133 J0.0528
G1 X18.4601 Y6.9765
G3 X18.5938 Y7.0746 I-0.1796 J0.3852
G3 X18.6798 Y7.2163 I-0.3133 J0.2871
G3 X18.7055 Y7.3617 I-0.3994 J0.1454
G3 X18.7051 Y7.3802 I-0.425 J0
G3 X18.6657 Y7.5413 I-0.4246 J-0.0185
G1 X17.7478 Y9.5097
G2 X17.7323 Y9.5659 I0.1586 J0.074
G2 X17.7314 Y9.5837 I0.1741 J0.0178
G2 X17.7361 Y9.624 I0.175 J0
G2 X17.7588 Y9.6777 I0.1703 J-0.0404
G2 X17.7978 Y9.7209 I0.1476 J-0.094
G2 X17.8489 Y9.749 I0.1085 J-0.1373
G2 X17.9064 Y9.7587 I0.0575 J-0.1653
G1 X31.59 Y9.7587
G1 X32.09 Y9.7587
G1 X33.8276 Y9.7587
G3 X34.0183 Y9.7889 I0 J0.6171
G3 X34.1903 Y9.8765 I-0.1907 J0.5869
G3 X34.3268 Y10.013 I-0.3627 J0.4993
G3 X34.4145 Y10.1851 I-0.4993 J0.3627
G3 X34.4447 Y10.3758 I-0.5869 J0.1907
G1 X34.4447 Y10.3758
G3 X34.4145 Y10.5665 I-0.6171 J0
G3 X34.3268 Y10.7385 I-0.5869 J-0.1907
G3 X34.1903 Y10.8751 I-0.4993 J-0.3627
G3 X34.0183 Y10.9627 I-0.3627 J-0.4993
G3 X33.8276 Y10.9929 I-0.1907 J-0.5869
G1 Z-0.3 F30
G1 X31.4456 Y10.9929 F60
G1 X30.9456 Y10.9929
G1 X17.1937 Y10.9929
G3 X17.1409 Y10.9812 I0 J-0.125
G1 X16.4273 Y10.6484
G3 X16.3551 Y10.5351 I0.0528 J-0.1133
G3 X16.3668 Y10.4823 I0.125 J0
G1 X17.1258 Y8.8547
G1 X17.3371 Y8.4015
G1 X18.0306 Y6.9142
G3 X18.1968 Y6.8537 I0.1133 J0.0528
G1 X18.4601 Y6.9765
G3 X18.5938 Y7.0746 I-0.1796 J0.3852
G3 X18.6798 Y7.2163 I-0.3133 J0.2871
G3 X18.7055 Y7.3617 I-0.3994 J0.1454
G3 X18.7051 Y7.3802 I-0.425 J0
G3 X18.6657 Y7.5413 I-0.4246 J-0.0185
G1 X17.7478 Y9.5097
G2 X17.7323 Y9.5659 I0.1586 J0.074
G2 X17.7314 Y9.5837 I0.1741 J0.0178
G2 X17.7361 Y9.624 I0.175 J0
G2 X17.7588 Y9.6777 I0.1703 J-0.0404
G2 X17.7978 Y9.7209 I0.1476 J-0.094
G2 X17.8489 Y9.749 I0.1085 J-0.1373
G2 X17.9064 Y9.7587 I0.0575 J-0.1653
G1 X31.59 Y9.7587
G1 X32.09 Y9.7587
G1 X33.8276 Y9.7587
G3 X34.0183 Y9.7889 I0 J0.6171
G3 X34.1903 Y9.8765 I-0.1907 J0.5869
G3 X34.3268 Y10.013 I-0.3627 J0.4993
G3 X34.4145 Y10.1851 I-0.4993 J0.3627
G3 X34.4447 Y10.3758 I-0.5869 J0.1907
G1 X34.4447 Y10.3758
G3 X34.4145 Y10.5665 I-0.6171 J0
G3 X34.3268 Y10.7385 I-0.5869 J-0.1907
G3 X34.1903 Y10.8751 I-0.4993 J-0.3627
G3 X34.0183 Y10.9627 I-0.3627 J-0.4993
G3 X33.8276 Y10.9929 I-0.1907 J-0.5869
G1 Z-0.4 F30
G1 X31.4456 Y10.9929 F60
G1 X30.9456 Y10.9929
G1 X17.1937 Y10.9929
G3 X17.1409 Y10.9812 I0 J-0.125
G1 X16.4273 Y10.6484
G3 X16.3551 Y10.5351 I0.0528 J-0.1133
G3 X16.3668 Y10.4823 I0.125 J0
G1 X17.1258 Y8.8547
G1 X17.3371 Y8.4015
G1 X18.0306 Y6.9142
G3 X18.1968 Y6.8537 I0.1133 J0.0528
G1 X18.4601 Y6.9765
G3 X18.5938 Y7.0746 I-0.1796 J0.3852
G3 X18.6798 Y7.2163 I-0.3133 J0.2871
G3 X18.7055 Y7.3617 I-0.3994 J0.1454
G3 X18.7051 Y7.3802 I-0.425 J0
G3 X18.6657 Y7.5413 I-0.4246 J-0.0185
G1 X17.7478 Y9.5097
G2 X17.7323 Y9.5659 I0.1586 J0.074
G2 X17.7314 Y9.5837 I0.1741 J0.0178
G2 X17.7361 Y9.624 I0.175 J0
G2 X17.7588 Y9.6777 I0.1703 J-0.0404
G2 X17.7978 Y9.7209 I0.1476 J-0.094
G2 X17.8489 Y9.749 I0.1085 J-0.1373
G2 X17.9064 Y9.7587 I0.0575 J-0.1653
G1 X31.59 Y9.7587
G1 X32.09 Y9.7587
G1 X33.8276 Y9.7587
G3 X34.0183 Y9.7889 I0 J0.6171
G3 X34.1903 Y9.8765 I-0.1907 J0.5869
G3 X34.3268 Y10.013 I-0.3627 J0.4993
G3 X34.4145 Y10.1851 I-0.4993 J0.3627
G3 X34.4447 Y10.3758 I-0.5869 J0.1907
G1 X34.4447 Y10.3758
G3 X34.4145 Y10.5665 I-0.6171 J0
G3 X34.3268 Y10.7385 I-0.5869 J-0.1907
G3 X34.1903 Y10.8751 I-0.4993 J-0.3627
G3 X34.0183 Y10.9627 I-0.3627 J-0.4993
G3 X33.8276 Y10.9929 I-0.1907 J-0.5869
G1 Z-0.5 F30
G1 X31.4456 Y10.9929 F60
G1 X30.9456 Y10.9929
G1 X17.1937 Y10.9929
G3 X17.1409 Y10.9812 I0 J-0.125
G1 X16.4273 Y10.6484
G3 X16.3551 Y10.5351 I0.0528 J-0.1133
G3 X16.3668 Y10.4823 I0.125 J0
G1 X17.1258 Y8.8547
G1 X17.3371 Y8.4015
G1 X18.0306 Y6.9142
G3 X18.1968 Y6.8537 I0.1133 J0.0528
G1 X18.4601 Y6.9765
G3 X18.5938 Y7.0746 I-0.1796 J0.3852
G3 X18.6798 Y7.2163 I-0.3133 J0.2871
G3 X18.7055 Y7.3617 I-0.3994 J0.1454
G3 X18.7051 Y7.3802 I-0.425 J0
G3 X18.6657 Y7.5413 I-0.4246 J-0.0185
G1 X17.7478 Y9.5097
G2 X17.7323 Y9.5659 I0.1586 J0.074
G2 X17.7314 Y9.5837 I0.1741 J0.0178
G2 X17.7361 Y9.624 I0.175 J0
G2 X17.7588 Y9.6777 I0.1703 J-0.0404
G2 X17.7978 Y9.7209 I0.1476 J-0.094
G2 X17.8489 Y9.749 I0.1085 J-0.1373
G2 X17.9064 Y9.7587 I0.0575 J-0.1653
G1 X31.59 Y9.7587
G1 X32.09 Y9.7587
G1 X33.8276 Y9.7587
G3 X34.0183 Y9.7889 I0 J0.6171
G3 X34.1903 Y9.8765 I-0.1907 J0.5869
G3 X34.3268 Y10.013 I-0.3627 J0.4993
G3 X34.4145 Y10.1851 I-0.4993 J0.3627
G3 X34.4447 Y10.3758 I-0.5869 J0.1907
G1 X34.4447 Y10.3758
G3 X34.4145 Y10.5665 I-0.6171 J0
G3 X34.3268 Y10.7385 I-0.5869 J-0.1907
G3 X34.1903 Y10.8751 I-0.4993 J-0.3627
G3 X34.0183 Y10.9627 I-0.3627 J-0.4993
G3 X33.8276 Y10.9929 I-0.1907 J-0.5869
G1 Z-0.6 F30
G1 X31.4456 Y10.9929 F60
G1 X30.9456 Y10.9929
G1 X17.1937 Y10.9929
G3 X17.1409 Y10.9812 I0 J-0.125
G1 X16.4273 Y10.6484
G3 X16.3551 Y10.5351 I0.0528 J-0.1133
G3 X16.3668 Y10.4823 I0.125 J0
G1 X17.1258 Y8.8547
G1 X17.3371 Y8.4015
G1 X18.0306 Y6.9142
G3 X18.1968 Y6.8537 I0.1133 J0.0528
G1 X18.4601 Y6.9765
G3 X18.5938 Y7.0746 I-0.1796 J0.3852
G3 X18.6798 Y7.2163 I-0.3133 J0.2871
G3 X18.7055 Y7.3617 I-0.3994 J0.1454
G3 X18.7051 Y7.3802 I-0.425 J0
G3 X18.6657 Y7.5413 I-0.4246 J-0.0185
G1 X17.7478 Y9.5097
G2 X17.7323 Y9.5659 I0.1586 J0.074
G2 X17.7314 Y9.5837 I0.1741 J0.0178
G2 X17.7361 Y9.624 I0.175 J0
G2 X17.7588 Y9.6777 I0.1703 J-0.0404
G2 X17.7978 Y9.7209 I0.1476 J-0.094
G2 X17.8489 Y9.749 I0.1085 J-0.1373
G2 X17.9064 Y9.7587 I0.0575 J-0.1653
G1 X31.59 Y9.7587
G1 X32.09 Y9.7587
G1 X33.8276 Y9.7587
G3 X34.0183 Y9.7889 I0 J0.6171
G3 X34.1903 Y9.8765 I-0.1907 J0.5869
G3 X34.3268 Y10.013 I-0.3627 J0.4993
G3 X34.4145 Y10.1851 I-0.4993 J0.3627
G3 X34.4447 Y10.3758 I-0.5869 J0.1907
G1 X34.4447 Y10.3758
G3 X34.4145 Y10.5665 I-0.6171 J0
G3 X34.3268 Y10.7385 I-0.5869 J-0.1907
G3 X34.1903 Y10.8751 I-0.4993 J-0.3627
G3 X34.0183 Y10.9627 I-0.3627 J-0.4993
G3 X33.8276 Y10.9929 I-0.1907 J-0.5869
G1 Z-0.7 F30
G1 X31.4456 Y10.9929 F60
G1 Z-0.6 F30
G1 X30.9456 Y10.9929 F60
G1 Z-0.7 F30
G1 X17.1937 Y10.9929 F60
G3 X17.1409 Y10.9812 I0 J-0.125
G1 X16.4273 Y10.6484
G3 X16.3551 Y10.5351 I0.0528 J-0.1133
G3 X16.3668 Y10.4823 I0.125 J0
G1 X17.1258 Y8.8547
G1 Z-0.6 F30
G1 X17.3371 Y8.4015 F60
G1 Z-0.7 F30
G1 X18.0306 Y6.9142 F60
G3 X18.1968 Y6.8537 I0.1133 J0.0528
G1 X18.4601 Y6.9765
G3 X18.5938 Y7.0746 I-0.1796 J0.3852
G3 X18.6798 Y7.2163 I-0.3133 J0.2871
G3 X18.7055 Y7.3617 I-0.3994 J0.1454
G3 X18.7051 Y7.3802 I-0.425 J0
G3 X18.6657 Y7.5413 I-0.4246 J-0.0185
G1 X17.7478 Y9.5097
G2 X17.7323 Y9.5659 I0.1586 J0.074
G2 X17.7314 Y9.5837 I0.1741 J0.0178
G2 X17.7361 Y9.624 I0.175 J0
G2 X17.7588 Y9.6777 I0.1703 J-0.0404
G2 X17.7978 Y9.7209 I0.1476 J-0.094
G2 X17.8489 Y9.749 I0.1085 J-0.1373
G2 X17.9064 Y9.7587 I0.0575 J-0.1653
G1 X31.59 Y9.7587
G1 Z-0.6 F30
G1 X32.09 Y9.7587 F60
G1 Z-0.7 F30
G1 X33.8276 Y9.7587 F60
G3 X34.0183 Y9.7889 I0 J0.6171
G3 X34.1903 Y9.8765 I-0.1907 J0.5869
G3 X34.3268 Y10.013 I-0.3627 J0.4993
G3 X34.4145 Y10.1851 I-0.4993 J0.3627
G3 X34.4447 Y10.3758 I-0.5869 J0.1907
G1 X34.4447 Y10.3758
G3 X34.4145 Y10.5665 I-0.6171 J0
G3 X34.3268 Y10.7385 I-0.5869 J-0.1907
G3 X34.1903 Y10.8751 I-0.4993 J-0.3627
G3 X34.0183 Y10.9627 I-0.3627 J-0.4993
G3 X33.8276 Y10.9929 I-0.1907 J-0.5869
G1 Z-0.8 F30
G1 X31.4456 Y10.9929 F60
G1 Z-0.6 F30
G1 X30.9456 Y10.9929 F60
G1 Z-0.8 F30
G1 X17.1937 Y10.9929 F60
G3 X17.1409 Y10.9812 I0 J-0.125
G1 X16.4273 Y10.6484
G3 X16.3551 Y10.5351 I0.0528 J-0.1133
G3 X16.3668 Y10.4823 I0.125 J0
G1 X17.1258 Y8.8547
G1 Z-0.6 F30
G1 X17.3371 Y8.4015 F60
G1 Z-0.8 F30
G1 X18.0306 Y6.9142 F60
G3 X18.1968 Y6.8537 I0.1133 J0.0528
G1 X18.4601 Y6.9765
G3 X18.5938 Y7.0746 I-0.1796 J0.3852
G3 X18.6798 Y7.2163 I-0.3133 J0.2871
G3 X18.7055 Y7.3617 I-0.3994 J0.1454
G3 X18.7051 Y7.3802 I-0.425 J0
G3 X18.6657 Y7.5413 I-0.4246 J-0.0185
G1 X17.7478 Y9.5097
G2 X17.7323 Y9.5659 I0.1586 J0.074
G2 X17.7314 Y9.5837 I0.1741 J0.0178
G2 X17.7361 Y9.624 I0.175 J0
G2 X17.7588 Y9.6777 I0.1703 J-0.0404
G2 X17.7978 Y9.7209 I0.1476 J-0.094
G2 X17.8489 Y9.749 I0.1085 J-0.1373
G2 X17.9064 Y9.7587 I0.0575 J-0.1653
G1 X31.59 Y9.7587
G1 Z-0.6 F30
G1 X32.09 Y9.7587 F60
G1 Z-0.8 F30
G1 X33.8276 Y9.7587 F60
G3 X34.0183 Y9.7889 I0 J0.6171
G3 X34.1903 Y9.8765 I-0.1907 J0.5869
G3 X34.3268 Y10.013 I-0.3627 J0.4993
G3 X34.4145 Y10.1851 I-0.4993 J0.3627
G3 X34.4447 Y10.3758 I-0.5869 J0.1907
G1 X34.4447 Y10.3758
G3 X34.4145 Y10.5665 I-0.6171 J0
G3 X34.3268 Y10.7385 I-0.5869 J-0.1907
G3 X34.1903 Y10.8751 I-0.4993 J-0.3627
G3 X34.0183 Y10.9627 I-0.3627 J-0.4993
G3 X33.8276 Y10.9929 I-0.1907 J-0.5869
G1 Z-0.85 F30
G1 X31.4456 Y10.9929 F60
G1 Z-0.6 F30
G1 X30.9456 Y10.9929 F60
G1 Z-0.85 F30
G1 X17.1937 Y10.9929 F60
G3 X17.1409 Y10.9812 I0 J-0.125
G1 X16.4273 Y10.6484
G3 X16.3551 Y10.5351 I0.0528 J-0.1133
G3 X16.3668 Y10.4823 I0.125 J0
G1 X17.1258 Y8.8547
G1 Z-0.6 F30
G1 X17.3371 Y8.4015 F60
G1 Z-0.85 F30
G1 X18.0306 Y6.9142 F60
G3 X18.1968 Y6.8537 I0.1133 J0.0528
G1 X18.4601 Y6.9765
G3 X18.5938 Y7.0746 I-0.1796 J0.3852
G3 X18.6798 Y7.2163 I-0.3133 J0.2871
G3 X18.7055 Y7.3617 I-0.3994 J0.1454
G3 X18.7051 Y7.3802 I-0.425 J0
G3 X18.6657 Y7.5413 I-0.4246 J-0.0185
G1 X17.7478 Y9.5097
G2 X17.7323 Y9.5659 I0.1586 J0.074
G2 X17.7314 Y9.5837 I0.1741 J0.0178
G2 X17.7361 Y9.624 I0.175 J0
G2 X17.7588 Y9.6777 I0.1703 J-0.0404
G2 X17.7978 Y9.7209 I0.1476 J-0.094
G2 X17.8489 Y9.749 I0.1085 J-0.1373
G2 X17.9064 Y9.7587 I0.0575 J-0.1653
G1 X31.59 Y9.7587
G1 Z-0.6 F30
G1 X32.09 Y9.7587 F60
G1 Z-0.85 F30
G1 X33.8276 Y9.7587 F60
G3 X34.0183 Y9.7889 I0 J0.6171
G3 X34.1903 Y9.8765 I-0.1907 J0.5869
G3 X34.3268 Y10.013 I-0.3627 J0.4993
G3 X34.4145 Y10.1851 I-0.4993 J0.3627
G3 X34.4447 Y10.3758 I-0.5869 J0.1907
G1 X34.4447 Y10.3758
G3 X34.4145 Y10.5665 I-0.6171 J0
G3 X34.3268 Y10.7385 I-0.5869 J-0.1907
G3 X34.1903 Y10.8751 I-0.4993 J-0.3627
G3 X34.0183 Y10.9627 I-0.3627 J-0.4993
G3 X33.8276 Y10.9929 I-0.1907 J-0.5869
G0 Z0.15
G0 X29.4491 Y14.0388
G1 Z-0.1 F30
G1 X28.5773 Y14.0388 F60
G1 X28.0773 Y14.0388
G1 X12.8153 Y14.0388
G3 X12.7624 Y14.0271 I0 J-0.125
G1 X12.0488 Y13.6943
G3 X11.9766 Y13.581 I0.0528 J-0.1133
G3 X11.9883 Y13.5282 I0.125 J0
G1 X12.2368 Y12.9955
G1 X12.4481 Y12.5423
G1 X13.6522 Y9.9601
G3 X13.8183 Y9.8996 I0.1133 J0.0528
G1 X14.0816 Y10.0224
G3 X14.2154 Y10.1204 I-0.1796 J0.3852
G3 X14.3014 Y10.2622 I-0.3133 J0.2871
G3 X14.327 Y10.4076 I-0.3994 J0.1454
G3 X14.3266 Y10.4261 I-0.425 J0
G3 X14.2872 Y10.5872 I-0.4246 J-0.0185
G1 X13.3693 Y12.5556
G2 X13.3538 Y12.6118 I0.1586 J0.074
G2 X13.3529 Y12.6295 I0.1741 J0.0178
G2 X13.3576 Y12.6699 I0.175 J0
G2 X13.3803 Y12.7236 I0.1703 J-0.0404
G2 X13.4194 Y12.7668 I0.1476 J-0.094
G2 X13.4705 Y12.7948 I0.1085 J-0.1373
G2 X13.5279 Y12.8045 I0.0575 J-0.1653
G1 X28.9374 Y12.8045
G1 X29.4374 Y12.8045
G1 X29.4491 Y12.8045
G3 X29.6398 Y12.8347 I0 J0.6171
G3 X29.8119 Y12.9224 I-0.1907 J0.5869
G3 X29.9484 Y13.0589 I-0.3627 J0.4993
G3 X30.036 Y13.231 I-0.4993 J0.3627
G3 X30.0662 Y13.4217 I-0.5869 J0.1907
G1 X30.0662 Y13.4217
G3 X30.036 Y13.6124 I-0.6171 J0
G3 X29.9484 Y13.7844 I-0.5869 J-0.1907
G3 X29.8119 Y13.9209 I-0.4993 J-0.3627
G3 X29.6398 Y14.0086 I-0.3627 J-0.4993
G3 X29.4491 Y14.0388 I-0.1907 J-0.5869
G1 Z-0.2 F30
G1 X28.5773 Y14.0388 F60
G1 X28.0773 Y14.0388
G1 X12.8153 Y14.0388
G3 X12.7624 Y14.0271 I0 J-0.125
G1 X12.0488 Y13.6943
G3 X11.9766 Y13.581 I0.0528 J-0.1133
G3 X11.9883 Y13.5282 I0.125 J0
G1 X12.2368 Y12.9955
G1 X12.4481 Y12.5423
G1 X13.6522 Y9.9601
G3 X13.8183 Y9.8996 I0.1133 J0.0528
G1 X14.0816 Y10.0224
G3 X14.2154 Y10.1204 I-0.1796 J0.3852
G3 X14.3014 Y10.2622 I-0.3133 J0.2871
G3 X14.327 Y10.4076 I-0.3994 J0.1454
G3 X14.3266 Y10.4261 I-0.425 J0
G3 X14.2872 Y10.5872 I-0.4246 J-0.0185
G1 X13.3693 Y12.5556
G2 X13.3538 Y12.6118 I0.1586 J0.074
G2 X13.3529 Y12.6295 I0.1741 J0.0178
G2 X13.3576 Y12.6699 I0.175 J0
G2 X13.3803 Y12.7236 I0.1703 J-0.0404
G2 X13.4194 Y12.7668 I0.1476 J-0.094
G2 X13.4705 Y12.7948 I0.1085 J-0.1373
G2 X13.5279 Y12.8045 I0.0575 J-0.1653
G1 X28.9374 Y12.8045
G1 X29.4374 Y12.8045
G1 X29.4491 Y12.8045
G3 X29.6398 Y12.8347 I0 J0.6171
G3 X29.8119 Y12.9224 I-0.1907 J0.5869
G3 X29.9484 Y13.0589 I-0.3627 J0.4993
G3 X30.036 Y13.231 I-0.4993 J0.3627
G3 X30.0662 Y13.4217 I-0.5869 J0.1907
G1 X30.0662 Y13.4217
G3 X30.036 Y13.6124 I-0.6171 J0
G3 X29.9484 Y13.7844 I-0.5869 J-0.1907
G3 X29.8119 Y13.9209 I-0.4993 J-0.3627
G3 X29.6398 Y14.0086 I-0.3627 J-0.4993
G3 X29.4491 Y14.0388 I-0.1907 J-0.5869
G1 Z-0.3 F30
G1 X28.5773 Y14.0388 F60
G1 X28.0773 Y14.0388
G1 X12.8153 Y14.0388
G3 X12.7624 Y14.0271 I0 J-0.125
G1 X12.0488 Y13.6943
G3 X11.9766 Y13.581 I0.0528 J-0.1133
G3 X11.9883 Y13.5282 I0.125 J0
G1 X12.2368 Y12.9955
G1 X12.4481 Y12.5423
G1 X13.6522 Y9.9601
G3 X13.8183 Y9.8996 I0.1133 J0.0528
G1 X14.0816 Y10.0224
G3 X14.2154 Y10.1204 I-0.1796 J0.3852
G3 X14.3014 Y10.2622 I-0.3133 J0.2871
G3 X14.327 Y10.4076 I-0.3994 J0.1454
G3 X14.3266 Y10.4261 I-0.425 J0
G3 X14.2872 Y10.5872 I-0.4246 J-0.0185
G1 X13.3693 Y12.5556
G2 X13.3538 Y12.6118 I0.1586 J0.074
G2 X13.3529 Y12.6295 I0.1741 J0.0178
G2 X13.3576 Y12.6699 I0.175 J0
G2 X13.3803 Y12.7236 I0.1703 J-0.0404
G2 X13.4194 Y12.7668 I0.1476 J-0.094
G2 X13.4705 Y12.7948 I0.1085 J-0.1373
G2 X13.5279 Y12.8045 I0.0575 J-0.1653
G1 X28.9374 Y12.8045
G1 X29.4374 Y12.8045
G1 X29.4491 Y12.8045
G3 X29.6398 Y12.8347 I0 J0.6171
G3 X29.8119 Y12.9224 I-0.1907 J0.5869
G3 X29.9484 Y13.0589 I-0.3627 J0.4993
G3 X30.036 Y13.231 I-0.4993 J0.3627
G3 X30.0662 Y13.4217 I-0.5869 J0.1907
G1 X30.0662 Y13.4217
G3 X30.036 Y13.6124 I-0.6171 J0
G3 X29.9484 Y13.7844 I-0.5869 J-0.1907
G3 X29.8119 Y13.9209 I-0.4993 J-0.3627
G3 X29.6398 Y14.0086 I-0.3627 J-0.4993
G3 X29.4491 Y14.0388 I-0.1907 J-0.5869
G1 Z-0.4 F30
G1 X28.5773 Y14.0388 F60
G1 X28.0773 Y14.0388
G1 X12.8153 Y14.0388
G3 X12.7624 Y14.0271 I0 J-0.125
G1 X12.0488 Y13.6943
G3 X11.9766 Y13.581 I0.0528 J-0.1133
G3 X11.9883 Y13.5282 I0.125 J0
G1 X12.2368 Y12.9955
G1 X12.4481 Y12.5423
G1 X13.6522 Y9.9601
G3 X13.8183 Y9.8996 I0.1133 J0.0528
G1 X14.0816 Y10.0224
G3 X14.2154 Y10.1204 I-0.1796 J0.3852
G3 X14.3014 Y10.2622 I-0.3133 J0.2871
G3 X14.327 Y10.4076 I-0.3994 J0.1454
G3 X14.3266 Y10.4261 I-0.425 J0
G3 X14.2872 Y10.5872 I-0.4246 J-0.0185
G1 X13.3693 Y12.5556
G2 X13.3538 Y12.6118 I0.1586 J0.074
G2 X13.3529 Y12.6295 I0.1741 J0.0178
G2 X13.3576 Y12.6699 I0.175 J0
G2 X13.3803 Y12.7236 I0.1703 J-0.0404
G2 X13.4194 Y12.7668 I0.1476 J-0.094
G2 X13.4705 Y12.7948 I0.1085 J-0.1373
G2 X13.5279 Y12.8045 I0.0575 J-0.1653
G1 X28.9374 Y12.8045
G1 X29.4374 Y12.8045
G1 X29.4491 Y12.8045
G3 X29.6398 Y12.8347 I0 J0.6171
G3 X29.8119 Y12.9224 I-0.1907 J0.5869
G3 X29.9484 Y13.0589 I-0.3627 J0.4993
G3 X30.036 Y13.231 I-0.4993 J0.3627
G3 X30.0662 Y13.4217 I-0.5869 J0.1907
G1 X30.0662 Y13.4217
G3 X30.036 Y13.6124 I-0.6171 J0
G3 X29.9484 Y13.7844 I-0.5869 J-0.1907
G3 X29.8119 Y13.9209 I-0.4993 J-0.3627
G3 X29.6398 Y14.0086 I-0.3627 J-0.4993
G3 X29.4491 Y14.0388 I-0.1907 J-0.5869
G1 Z-0.5 F30
G1 X28.5773 Y14.0388 F60
G1 X28.0773 Y14.0388
G1 X12.8153 Y14.0388
G3 X12.7624 Y14.0271 I0 J-0.125
G1 X12.0488 Y13.6943
G3 X11.9766 Y13.581 I0.0528 J-0.1133
G3 X11.9883 Y13.5282 I0.125 J0
G1 X12.2368 Y12.9955
G1 X12.4481 Y12.5423
G1 X13.6522 Y9.9601
G3 X13.8183 Y9.8996 I0.1133 J0.0528
G1 X14.0816 Y10.0224
G3 X14.2154 Y10.1204 I-0.1796 J0.3852
G3 X14.3014 Y10.2622 I-0.3133 J0.2871
G3 X14.327 Y10.4076 I-0.3994 J0.1454
G3 X14.3266 Y10.4261 I-0.425 J0
G3 X14.2872 Y10.5872 I-0.4246 J-0.0185
G1 X13.3693 Y12.5556
G2 X13.3538 Y12.6118 I0.1586 J0.074
G2 X13.3529 Y12.6295 I0.1741 J0.0178
G2 X13.3576 Y12.6699 I0.175 J0
G2 X13.3803 Y12.7236 I0.1703 J-0.0404
G2 X13.4194 Y12.7668 I0.1476 J-0.094
G2 X13.4705 Y12.7948 I0.1085 J-0.1373
G2 X13.5279 Y12.8045 I0.0575 J-0.1653
G1 X28.9374 Y12.8045
G1 X29.4374 Y12.8045
G1 X29.4491 Y12.8045
G3 X29.6398 Y12.8347 I0 J0.6171
G3 X29.8119 Y12.9224 I-0.1907 J0.5869
G3 X29.9484 Y13.0589 I-0.3627 J0.4993
G3 X30.036 Y13.231 I-0.4993 J0.3627
G3 X30.0662 Y13.4217 I-0.5869 J0.1907
G1 X30.0662 Y13.4217
G3 X30.036 Y13.6124 I-0.6171 J0
G3 X29.9484 Y13.7844 I-0.5869 J-0.1907
G3 X29.8119 Y13.9209 I-0.4993 J-0.3627
G3 X29.6398 Y14.0086 I-0.3627 J-0.4993
G3 X29.4491 Y14.0388 I-0.1907 J-0.5869
G1 Z-0.6 F30
G1 X28.5773 Y14.0388 F60
G1 X28.0773 Y14.0388
G1 X12.8153 Y14.0388
G3 X12.7624 Y14.0271 I0 J-0.125
G1 X12.0488 Y13.6943
G3 X11.9766 Y13.581 I0.0528 J-0.1133
G3 X11.9883 Y13.5282 I0.125 J0
G1 X12.2368 Y12.9955
G1 X12.4481 Y12.5423
G1 X13.6522 Y9.9601
G3 X13.8183 Y9.8996 I0.1133 J0.0528
G1 X14.0816 Y10.0224
G3 X14.2154 Y10.1204 I-0.1796 J0.3852
G3 X14.3014 Y10.2622 I-0.3133 J0.2871
G3 X14.327 Y10.4076 I-0.3994 J0.1454
G3 X14.3266 Y10.4261 I-0.425 J0
G3 X14.2872 Y10.5872 I-0.4246 J-0.0185
G1 X13.3693 Y12.5556
G2 X13.3538 Y12.6118 I0.1586 J0.074
G2 X13.3529 Y12.6295 I0.1741 J0.0178
G2 X13.3576 Y12.6699 I0.175 J0
G2 X13.3803 Y12.7236 I0.1703 J-0.0404
G2 X13.4194 Y12.7668 I0.1476 J-0.094
G2 X13.4705 Y12.7948 I0.1085 J-0.1373
G2 X13.5279 Y12.8045 I0.0575 J-0.1653
G1 X28.9374 Y12.8045
G1 X29.4374 Y12.8045
G1 X29.4491 Y12.8045
G3 X29.6398 Y12.8347 I0 J0.6171
G3 X29.8119 Y12.9224 I-0.1907 J0.5869
G3 X29.9484 Y13.0589 I-0.3627 J0.4993
G3 X30.036 Y13.231 I-0.4993 J0.3627
G3 X30.0662 Y13.4217 I-0.5869 J0.1907
G1 X30.0662 Y13.4217
G3 X30.036 Y13.6124 I-0.6171 J0
G3 X29.9484 Y13.7844 I-0.5869 J-0.1907
G3 X29.8119 Y13.9209 I-0.4993 J-0.3627
G3 X29.6398 Y14.0086 I-0.3627 J-0.4993
G3 X29.4491 Y14.0388 I-0.1907 J-0.5869
G1 Z-0.7 F30
G1 X28.5773 Y14.0388 F60
G1 Z-0.6 F30
G1 X28.0773 Y14.0388 F60
G1 Z-0.7 F30
G1 X12.8153 Y14.0388 F60
G3 X12.7624 Y14.0271 I0 J-0.125
G1 X12.0488 Y13.6943
G3 X11.9766 Y13.581 I0.0528 J-0.1133
G3 X11.9883 Y13.5282 I0.125 J0
G1 X12.2368 Y12.9955
G1 Z-0.6 F30
G1 X12.4481 Y12.5423 F60
G1 Z-0.7 F30
G1 X13.6522 Y9.9601 F60
G3 X13.8183 Y9.8996 I0.1133 J0.0528
G1 X14.0816 Y10.0224
G3 X14.2154 Y10.1204 I-0.1796 J0.3852
G3 X14.3014 Y10.2622 I-0.3133 J0.2871
G3 X14.327 Y10.4076 I-0.3994 J0.1454
G3 X14.3266 Y10.4261 I-0.425 J0
G3 X14.2872 Y10.5872 I-0.4246 J-0.0185
G1 X13.3693 Y12.5556
G2 X13.3538 Y12.6118 I0.1586 J0.074
G2 X13.3529 Y12.6295 I0.1741 J0.0178
G2 X13.3576 Y12.6699 I0.175 J0
G2 X13.3803 Y12.7236 I0.1703 J-0.0404
G2 X13.4194 Y12.7668 I0.1476 J-0.094
G2 X13.4705 Y12.7948 I0.1085 J-0.1373
G2 X13.5279 Y12.8045 I0.0575 J-0.1653
G1 X28.9374 Y12.8045
G1 Z-0.6 F30
G1 X29.4374 Y12.8045 F60
G1 Z-0.7 F30
G1 X29.4491 Y12.8045 F60
G3 X29.6398 Y12.8347 I0 J0.6171
G3 X29.8119 Y12.9224 I-0.1907 J0.5869
G3 X29.9484 Y13.0589 I-0.3627 J0.4993
G3 X30.036 Y13.231 I-0.4993 J0.3627
G3 X30.0662 Y13.4217 I-0.5869 J0.1907
G1 X30.0662 Y13.4217
G3 X30.036 Y13.6124 I-0.6171 J0
G3 X29.9484 Y13.7844 I-0.5869 J-0.1907
G3 X29.8119 Y13.9209 I-0.4993 J-0.3627
G3 X29.6398 Y14.0086 I-0.3627 J-0.4993
G3 X29.4491 Y14.0388 I-0.1907 J-0.5869
G1 Z-0.8 F30
G1 X28.5773 Y14.0388 F60
G1 Z-0.6 F30
G1 X28.0773 Y14.0388 F60
G1 Z-0.8 F30
G1 X12.8153 Y14.0388 F60
G3 X12.7624 Y14.0271 I0 J-0.125
G1 X12.0488 Y13.6943
G3 X11.9766 Y13.581 I0.0528 J-0.1133
G3 X11.9883 Y13.5282 I0.125 J0
G1 X12.2368 Y12.9955
G1 Z-0.6 F30
G1 X12.4481 Y12.5423 F60
G1 Z-0.8 F30
G1 X13.6522 Y9.9601 F60
G3 X13.8183 Y9.8996 I0.1133 J0.0528
G1 X14.0816 Y10.0224
G3 X14.2154 Y10.1204 I-0.1796 J0.3852
G3 X14.3014 Y10.2622 I-0.3133 J0.2871
G3 X14.327 Y10.4076 I-0.3994 J0.1454
G3 X14.3266 Y10.4261 I-0.425 J0
G3 X14.2872 Y10.5872 I-0.4246 J-0.0185
G1 X13.3693 Y12.5556
G2 X13.3538 Y12.6118 I0.1586 J0.074
G2 X13.3529 Y12.6295 I0.1741 J0.0178
G2 X13.3576 Y12.6699 I0.175 J0
G2 X13.3803 Y12.7236 I0.1703 J-0.0404
G2 X13.4194 Y12.7668 I0.1476 J-0.094
G2 X13.4705 Y12.7948 I0.1085 J-0.1373
G2 X13.5279 Y12.8045 I0.0575 J-0.1653
G1 X28.9374 Y12.8045
G1 Z-0.6 F30
G1 X29.4374 Y12.8045 F60
G1 Z-0.8 F30
G1 X29.4491 Y12.8045 F60
G3 X29.6398 Y12.8347 I0 J0.6171
G3 X29.8119 Y12.9224 I-0.1907 J0.5869
G3 X29.9484 Y13.0589 I-0.3627 J0.4993
G3 X30.036 Y13.231 I-0.4993 J0.3627
G3 X30.0662 Y13.4217 I-0.5869 J0.1907
G1 X30.0662 Y13.4217
G3 X30.036 Y13.6124 I-0.6171 J0
G3 X29.9484 Y13.7844 I-0.5869 J-0.1907
G3 X29.8119 Y13.9209 I-0.4993 J-0.3627
G3 X29.6398 Y14.0086 I-0.3627 J-0.4993
G3 X29.4491 Y14.0388 I-0.1907 J-0.5869
G1 Z-0.85 F30
G1 X28.5773 Y14.0388 F60
G1 Z-0.6 F30
G1 X28.0773 Y14.0388 F60
G1 Z-0.85 F30
G1 X12.8153 Y14.0388 F60
G3 X12.7624 Y14.0271 I0 J-0.125
G1 X12.0488 Y13.6943
G3 X11.9766 Y13.581 I0.0528 J-0.1133
G3 X11.9883 Y13.5282 I0.125 J0
G1 X12.2368 Y12.9955
G1 Z-0.6 F30
G1 X12.4481 Y12.5423 F60
G1 Z-0.85 F30
G1 X13.6522 Y9.9601 F60
G3 X13.8183 Y9.8996 I0.1133 J0.0528
G1 X14.0816 Y10.0224
G3 X14.2154 Y10.1204 I-0.1796 J0.3852
G3 X14.3014 Y10.2622 I-0.3133 J0.2871
G3 X14.327 Y10.4076 I-0.3994 J0.1454
G3 X14.3266 Y10.4261 I-0.425 J0
G3 X14.2872 Y10.5872 I-0.4246 J-0.0185
G1 X13.3693 Y12.5556
G2 X13.3538 Y12.6118 I0.1586 J0.074
G2 X13.3529 Y12.6295 I0.1741 J0.0178
G2 X13.3576 Y12.6699 I0.175 J0
G2 X13.3803 Y12.7236 I0.1703 J-0.0404
G2 X13.4194 Y12.7668 I0.1476 J-0.094
G2 X13.4705 Y12.7948 I0.1085 J-0.1373
G2 X13.5279 Y12.8045 I0.0575 J-0.1653
G1 X28.9374 Y12.8045
G1 Z-0.6 F30
G1 X29.4374 Y12.8045 F60
G1 Z-0.85 F30
G1 X29.4491 Y12.8045 F60
G3 X29.6398 Y12.8347 I0 J0.6171
G3 X29.8119 Y12.9224 I-0.1907 J0.5869
G3 X29.9484 Y13.0589 I-0.3627 J0.4993
G3 X30.036 Y13.231 I-0.4993 J0.3627
G3 X30.0662 Y13.4217 I-0.5869 J0.1907
G1 X30.0662 Y13.4217
G3 X30.036 Y13.6124 I-0.6171 J0
G3 X29.9484 Y13.7844 I-0.5869 J-0.1907
G3 X29.8119 Y13.9209 I-0.4993 J-0.3627
G3 X29.6398 Y14.0086 I-0.3627 J-0.4993
G3 X29.4491 Y14.0388 I-0.1907 J-0.5869
G0 Z0.15
G0 X31.6383 Y12.5159
G1 Z-0.1 F30
G1 X29.5584 Y12.5159 F60
G1 X29.0584 Y12.5159
G1 X16.6383 Y12.5159
G1 X16.1383 Y12.5159
G1 X15.0045 Y12.5159
G3 X14.9517 Y12.5041 I0 J-0.125
G1 X14.238 Y12.1714
G3 X14.1659 Y12.0581 I0.0528 J-0.1133
G3 X14.1776 Y12.0053 I0.125 J0
G1 X14.9913 Y10.2603
G1 X15.2026 Y9.8071
G1 X15.8414 Y8.4371
G3 X16.0075 Y8.3767 I0.1133 J0.0528
G1 X16.2709 Y8.4994
G3 X16.4046 Y8.5975 I-0.1796 J0.3852
G3 X16.4906 Y8.7393 I-0.3133 J0.2871
G3 X16.5163 Y8.8846 I-0.3994 J0.1454
G3 X16.5158 Y8.9032 I-0.425 J0
G3 X16.4764 Y9.0642 I-0.4246 J-0.0185
G1 X15.5586 Y11.0326
G2 X15.5431 Y11.0888 I0.1586 J0.074
G2 X15.5422 Y11.1066 I0.1741 J0.0178
G2 X15.5469 Y11.147 I0.175 J0
G2 X15.5696 Y11.2006 I0.1703 J-0.0404
G2 X15.6086 Y11.2439 I0.1476 J-0.094
G2 X15.6597 Y11.2719 I0.1085 J-0.1373
G2 X15.7172 Y11.2816 I0.0575 J-0.1653
G1 X30.9109 Y11.2816
G1 X31.4109 Y11.2816
G1 X31.6383 Y11.2816
G3 X31.829 Y11.3118 I0 J0.6171
G3 X32.0011 Y11.3995 I-0.1907 J0.5869
G3 X32.1376 Y11.536 I-0.3627 J0.4993
G3 X32.2253 Y11.708 I-0.4993 J0.3627
G3 X32.2555 Y11.8987 I-0.5869 J0.1907
G1 X32.2555 Y11.8987
G3 X32.2253 Y12.0894 I-0.6171 J0
G3 X32.1376 Y12.2615 I-0.5869 J-0.1907
G3 X32.0011 Y12.398 I-0.4993 J-0.3627
G3 X31.829 Y12.4856 I-0.3627 J-0.4993
G3 X31.6383 Y12.5159 I-0.1907 J-0.5869
G1 Z-0.2 F30
G1 X29.5584 Y12.5159 F60
G1 X29.0584 Y12.5159
G1 X16.6383 Y12.5159
G1 X16.1383 Y12.5159
G1 X15.0045 Y12.5159
G3 X14.9517 Y12.5041 I0 J-0.125
G1 X14.238 Y12.1714
G3 X14.1659 Y12.0581 I0.0528 J-0.1133
G3 X14.1776 Y12.0053 I0.125 J0
G1 X14.9913 Y10.2603
G1 X15.2026 Y9.8071
G1 X15.8414 Y8.4371
G3 X16.0075 Y8.3767 I0.1133 J0.0528
G1 X16.2709 Y8.4994
G3 X16.4046 Y8.5975 I-0.1796 J0.3852
G3 X16.4906 Y8.7393 I-0.3133 J0.2871
G3 X16.5163 Y8.8846 I-0.3994 J0.1454
G3 X16.5158 Y8.9032 I-0.425 J0
G3 X16.4764 Y9.0642 I-0.4246 J-0.0185
G1 X15.5586 Y11.0326
G2 X15.5431 Y11.0888 I0.1586 J0.074
G2 X15.5422 Y11.1066 I0.1741 J0.0178
G2 X15.5469 Y11.147 I0.175 J0
G2 X15.5696 Y11.2006 I0.1703 J-0.0404
G2 X15.6086 Y11.2439 I0.1476 J-0.094
G2 X15.6597 Y11.2719 I0.1085 J-0.1373
G2 X15.7172 Y11.2816 I0.0575 J-0.1653
G1 X30.9109 Y11.2816
G1 X31.4109 Y11.2816
G1 X31.6383 Y11.2816
G3 X31.829 Y11.3118 I0 J0.6171
G3 X32.0011 Y11.3995 I-0.1907 J0.5869
G3 X32.1376 Y11.536 I-0.3627 J0.4993
G3 X32.2253 Y11.708 I-0.4993 J0.3627
G3 X32.2555 Y11.8987 I-0.5869 J0.1907
G1 X32.2555 Y11.8987
G3 X32.2253 Y12.0894 I-0.6171 J0
G3 X32.1376 Y12.2615 I-0.5869 J-0.1907
G3 X32.0011 Y12.398 I-0.4993 J-0.3627
G3 X31.829 Y12.4856 I-0.3627 J-0.4993
G3 X31.6383 Y12.5159 I-0.1907 J-0.5869
G1 Z-0.3 F30
G1 X29.5584 Y12.5159 F60
G1 X29.0584 Y12.5159
G1 X16.6383 Y12.5159
G1 X16.1383 Y12.5159
G1 X15.0045 Y12.5159
G3 X14.9517 Y12.5041 I0 J-0.125
G1 X14.238 Y12.1714
G3 X14.1659 Y12.0581 I0.0528 J-0.1133
G3 X14.1776 Y12.0053 I0.125 J0
G1 X14.9913 Y10.2603
G1 X15.2026 Y9.8071
G1 X15.8414 Y8.4371
G3 X16.0075 Y8.3767 I0.1133 J0.0528
G1 X16.2709 Y8.4994
G3 X16.4046 Y8.5975 I-0.1796 J0.3852
G3 X16.4906 Y8.7393 I-0.3133 J0.2871
G3 X16.5163 Y8.8846 I-0.3994 J0.1454
G3 X16.5158 Y8.9032 I-0.425 J0
G3 X16.4764 Y9.0642 I-0.4246 J-0.0185
G1 X15.5586 Y11.0326
G2 X15.5431 Y11.0888 I0.1586 J0.074
G2 X15.5422 Y11.1066 I0.1741 J0.0178
G2 X15.5469 Y11.147 I0.175 J0
G2 X15.5696 Y11.2006 I0.1703 J-0.0404
G2 X15.6086 Y11.2439 I0.1476 J-0.094
G2 X15.6597 Y11.2719 I0.1085 J-0.1373
G2 X15.7172 Y11.2816 I0.0575 J-0.1653
G1 X30.9109 Y11.2816
G1 X31.4109 Y11.2816
G1 X31.6383 Y11.2816
G3 X31.829 Y11.3118 I0 J0.6171
G3 X32.0011 Y11.3995 I-0.1907 J0.5869
G3 X32.1376 Y11.536 I-0.3627 J0.4993
G3 X32.2253 Y11.708 I-0.4993 J0.3627
G3 X32.2555 Y11.8987 I-0.5869 J0.1907
G1 X32.2555 Y11.8987
G3 X32.2253 Y12.0894 I-0.6171 J0
G3 X32.1376 Y12.2615 I-0.5869 J-0.1907
G3 X32.0011 Y12.398 I-0.4993 J-0.3627
G3 X31.829 Y12.4856 I-0.3627 J-0.4993
G3 X31.6383 Y12.5159 I-0.1907 J-0.5869
G1 Z-0.4 F30
G1 X29.5584 Y12.5159 F60
G1 X29.0584 Y12.5159
G1 X16.6383 Y12.5159
G1 X16.1383 Y12.5159
G1 X15.0045 Y12.5159
G3 X14.9517 Y12.5041 I0 J-0.125
G1 X14.238 Y12.1714
G3 X14.1659 Y12.0581 I0.0528 J-0.1133
G3 X14.1776 Y12.0053 I0.125 J0
G1 X14.9913 Y10.2603
G1 X15.2026 Y9.8071
G1 X15.8414 Y8.4371
G3 X16.0075 Y8.3767 I0.1133 J0.0528
G1 X16.2709 Y8.4994
G3 X16.4046 Y8.5975 I-0.1796 J0.3852
G3 X16.4906 Y8.7393 I-0.3133 J0.2871
G3 X16.5163 Y8.8846 I-0.3994 J0.1454
G3 X16.5158 Y8.9032 I-0.425 J0
G3 X16.4764 Y9.0642 I-0.4246 J-0.0185
G1 X15.5586 Y11.0326
G2 X15.5431 Y11.0888 I0.1586 J0.074
G2 X15.5422 Y11.1066 I0.1741 J0.0178
G2 X15.5469 Y11.147 I0.175 J0
G2 X15.5696 Y11.2006 I0.1703 J-0.0404
G2 X15.6086 Y11.2439 I0.1476 J-0.094
G2 X15.6597 Y11.2719 I0.1085 J-0.1373
G2 X15.7172 Y11.2816 I0.0575 J-0.1653
G1 X30.9109 Y11.2816
G1 X31.4109 Y11.2816
G1 X31.6383 Y11.2816
G3 X31.829 Y11.3118 I0 J0.6171
G3 X32.0011 Y11.3995 I-0.1907 J0.5869
G3 X32.1376 Y11.536 I-0.3627 J0.4993
G3 X32.2253 Y11.708 I-0.4993 J0.3627
G3 X32.2555 Y11.8987 I-0.5869 J0.1907
G1 X32.2555 Y11.8987
G3 X32.2253 Y12.0894 I-0.6171 J0
G3 X32.1376 Y12.2615 I-0.5869 J-0.1907
G3 X32.0011 Y12.398 I-0.4993 J-0.3627
G3 X31.829 Y12.4856 I-0.3627 J-0.4993
G3 X31.6383 Y12.5159 I-0.1907 J-0.5869
G1 Z-0.5 F30
G1 X29.5584 Y12.5159 F60
G1 X29.0584 Y12.5159
G1 X16.6383 Y12.5159
G1 X16.1383 Y12.5159
G1 X15.0045 Y12.5159
G3 X14.9517 Y12.5041 I0 J-0.125
G1 X14.238 Y12.1714
G3 X14.1659 Y12.0581 I0.0528 J-0.1133
G3 X14.1776 Y12.0053 I0.125 J0
G1 X14.9913 Y10.2603
G1 X15.2026 Y9.8071
G1 X15.8414 Y8.4371
G3 X16.0075 Y8.3767 I0.1133 J0.0528
G1 X16.2709 Y8.4994
G3 X16.4046 Y8.5975 I-0.1796 J0.3852
G3 X16.4906 Y8.7393 I-0.3133 J0.2871
G3 X16.5163 Y8.8846 I-0.3994 J0.1454
G3 X16.5158 Y8.9032 I-0.425 J0
G3 X16.4764 Y9.0642 I-0.4246 J-0.0185
G1 X15.5586 Y11.0326
G2 X15.5431 Y11.0888 I0.1586 J0.074
G2 X15.5422 Y11.1066 I0.1741 J0.0178
G2 X15.5469 Y11.147 I0.175 J0
G2 X15.5696 Y11.2006 I0.1703 J-0.0404
G2 X15.6086 Y11.2439 I0.1476 J-0.094
G2 X15.6597 Y11.2719 I0.1085 J-0.1373
G2 X15.7172 Y11.2816 I0.0575 J-0.1653
G1 X30.9109 Y11.2816
G1 X31.4109 Y11.2816
G1 X31.6383 Y11.2816
G3 X31.829 Y11.3118 I0 J0.6171
G3 X32.0011 Y11.3995 I-0.1907 J0.5869
G3 X32.1376 Y11.536 I-0.3627 J0.4993
G3 X32.2253 Y11.708 I-0.4993 J0.3627
G3 X32.2555 Y11.8987 I-0.5869 J0.1907
G1 X32.2555 Y11.8987
G3 X32.2253 Y12.0894 I-0.6171 J0
G3 X32.1376 Y12.2615 I-0.5869 J-0.1907
G3 X32.0011 Y12.398 I-0.4993 J-0.3627
G3 X31.829 Y12.4856 I-0.3627 J-0.4993
G3 X31.6383 Y12.5159 I-0.1907 J-0.5869
G1 Z-0.6 F30
G1 X29.5584 Y12.5159 F60
G1 X29.0584 Y12.5159
G1 X16.6383 Y12.5159
G1 X16.1383 Y12.5159
G1 X15.0045 Y12.5159
G3 X14.9517 Y12.5041 I0 J-0.125
G1 X14.238 Y12.1714
G3 X14.1659 Y12.0581 I0.0528 J-0.1133
G3 X14.1776 Y12.0053 I0.125 J0
G1 X14.9913 Y10.2603
G1 X15.2026 Y9.8071
G1 X15.8414 Y8.4371
G3 X16.0075 Y8.3767 I0.1133 J0.0528
G1 X16.2709 Y8.4994
G3 X16.4046 Y8.5975 I-0.1796 J0.3852
G3 X16.4906 Y8.7393 I-0.3133 J0.2871
G3 X16.5163 Y8.8846 I-0.3994 J0.1454
G3 X16.5158 Y8.9032 I-0.425 J0
G3 X16.4764 Y9.0642 I-0.4246 J-0.0185
G1 X15.5586 Y11.0326
G2 X15.5431 Y11.0888 I0.1586 J0.074
G2 X15.5422 Y11.1066 I0.1741 J0.0178
G2 X15.5469 Y11.147 I0.175 J0
G2 X15.5696 Y11.2006 I0.1703 J-0.0404
G2 X15.6086 Y11.2439 I0.1476 J-0.094
G2 X15.6597 Y11.2719 I0.1085 J-0.1373
G2 X15.7172 Y11.2816 I0.0575 J-0.1653
G1 X30.9109 Y11.2816
G1 X31.4109 Y11.2816
G1 X31.6383 Y11.2816
G3 X31.829 Y11.3118 I0 J0.6171
G3 X32.0011 Y11.3995 I-0.1907 J0.5869
G3 X32.1376 Y11.536 I-0.3627 J0.4993
G3 X32.2253 Y11.708 I-0.4993 J0.3627
G3 X32.2555 Y11.8987 I-0.5869 J0.1907
G1 X32.2555 Y11.8987
G3 X32.2253 Y12.0894 I-0.6171 J0
G3 X32.1376 Y12.2615 I-0.5869 J-0.1907
G3 X32.0011 Y12.398 I-0.4993 J-0.3627
G3 X31.829 Y12.4856 I-0.3627 J-0.4993
G3 X31.6383 Y12.5159 I-0.1907 J-0.5869
G1 Z-0.7 F30
G1 X29.5584 Y12.5159 F60
G1 Z-0.6 F30
G1 X29.0584 Y12.5159 F60
G1 Z-0.7 F30
G1 X16.6383 Y12.5159 F60
G1 Z-0.6 F30
G1 X16.1383 Y12.5159 F60
G1 Z-0.7 F30
G1 X15.0045 Y12.5159 F60
G3 X14.9517 Y12.5041 I0 J-0.125
G1 X14.238 Y12.1714
G3 X14.1659 Y12.0581 I0.0528 J-0.1133
G3 X14.1776 Y12.0053 I0.125 J0
G1 X14.9913 Y10.2603
G1 Z-0.6 F30
G1 X15.2026 Y9.8071 F60
G1 Z-0.7 F30
G1 X15.8414 Y8.4371 F60
G3 X16.0075 Y8.3767 I0.1133 J0.0528
G1 X16.2709 Y8.4994
G3 X16.4046 Y8.5975 I-0.1796 J0.3852
G3 X16.4906 Y8.7393 I-0.3133 J0.2871
G3 X16.5163 Y8.8846 I-0.3994 J0.1454
G3 X16.5158 Y8.9032 I-0.425 J0
G3 X16.4764 Y9.0642 I-0.4246 J-0.0185
G1 X15.5586 Y11.0326
G2 X15.5431 Y11.0888 I0.1586 J0.074
G2 X15.5422 Y11.1066 I0.1741 J0.0178
G2 X15.5469 Y11.147 I0.175 J0
G2 X15.5696 Y11.2006 I0.1703 J-0.0404
G2 X15.6086 Y11.2439 I0.1476 J-0.094
G2 X15.6597 Y11.2719 I0.1085 J-0.1373
G2 X15.7172 Y11.2816 I0.0575 J-0.1653
G1 X30.9109 Y11.2816
G1 Z-0.6 F30
G1 X31.4109 Y11.2816 F60
G1 Z-0.7 F30
G1 X31.6383 Y11.2816 F60
G3 X31.829 Y11.3118 I0 J0.6171
G3 X32.0011 Y11.3995 I-0.1907 J0.5869
G3 X32.1376 Y11.536 I-0.3627 J0.4993
G3 X32.2253 Y11.708 I-0.4993 J0.3627
G3 X32.2555 Y11.8987 I-0.5869 J0.1907
G1 X32.2555 Y11.8987
G3 X32.2253 Y12.0894 I-0.6171 J0
G3 X32.1376 Y12.2615 I-0.5869 J-0.1907
G3 X32.0011 Y12.398 I-0.4993 J-0.3627
G3 X31.829 Y12.4856 I-0.3627 J-0.4993
G3 X31.6383 Y12.5159 I-0.1907 J-0.5869
G1 Z-0.8 F30
G1 X29.5584 Y12.5159 F60
G1 Z-0.6 F30
G1 X29.0584 Y12.5159 F60
G1 Z-0.8 F30
G1 X16.6383 Y12.5159 F60
G1 Z-0.6 F30
G1 X16.1383 Y12.5159 F60
G1 Z-0.8 F30
G1 X15.0045 Y12.5159 F60
G3 X14.9517 Y12.5041 I0 J-0.125
G1 X14.238 Y12.1714
G3 X14.1659 Y12.0581 I0.0528 J-0.1133
G3 X14.1776 Y12.0053 I0.125 J0
G1 X14.9913 Y10.2603
G1 Z-0.6 F30
G1 X15.2026 Y9.8071 F60
G1 Z-0.8 F30
G1 X15.8414 Y8.4371 F60
G3 X16.0075 Y8.3767 I0.1133 J0.0528
G1 X16.2709 Y8.4994
G3 X16.4046 Y8.5975 I-0.1796 J0.3852
G3 X16.4906 Y8.7393 I-0.3133 J0.2871
G3 X16.5163 Y8.8846 I-0.3994 J0.1454
G3 X16.5158 Y8.9032 I-0.425 J0
G3 X16.4764 Y9.0642 I-0.4246 J-0.0185
G1 X15.5586 Y11.0326
G2 X15.5431 Y11.0888 I0.1586 J0.074
G2 X15.5422 Y11.1066 I0.1741 J0.0178
G2 X15.5469 Y11.147 I0.175 J0
G2 X15.5696 Y11.2006 I0.1703 J-0.0404
G2 X15.6086 Y11.2439 I0.1476 J-0.094
G2 X15.6597 Y11.2719 I0.1085 J-0.1373
G2 X15.7172 Y11.2816 I0.0575 J-0.1653
G1 X30.9109 Y11.2816
G1 Z-0.6 F30
G1 X31.4109 Y11.2816 F60
G1 Z-0.8 F30
G1 X31.6383 Y11.2816 F60
G3 X31.829 Y11.3118 I0 J0.6171
G3 X32.0011 Y11.3995 I-0.1907 J0.5869
G3 X32.1376 Y11.536 I-0.3627 J0.4993
G3 X32.2253 Y11.708 I-0.4993 J0.3627
G3 X32.2555 Y11.8987 I-0.5869 J0.1907
G1 X32.2555 Y11.8987
G3 X32.2253 Y12.0894 I-0.6171 J0
G3 X32.1376 Y12.2615 I-0.5869 J-0.1907
G3 X32.0011 Y12.398 I-0.4993 J-0.3627
G3 X31.829 Y12.4856 I-0.3627 J-0.4993
G3 X31.6383 Y12.5159 I-0.1907 J-0.5869
G1 Z-0.85 F30
G1 X29.5584 Y12.5159 F60
G1 Z-0.6 F30
G1 X29.0584 Y12.5159 F60
G1 Z-0.85 F30
G1 X16.6383 Y12.5159 F60
G1 Z-0.6 F30
G1 X16.1383 Y12.5159 F60
G1 Z-0.85 F30
G1 X15.0045 Y12.5159 F60
G3 X14.9517 Y12.5041 I0 J-0.125
G1 X14.238 Y12.1714
G3 X14.1659 Y12.0581 I0.0528 J-0.1133
G3 X14.1776 Y12.0053 I0.125 J0
G1 X14.9913 Y10.2603
G1 Z-0.6 F30
G1 X15.2026 Y9.8071 F60
G1 Z-0.85 F30
G1 X15.8414 Y8.4371 F60
G3 X16.0075 Y8.3767 I0.1133 J0.0528
G1 X16.2709 Y8.4994
G3 X16.4046 Y8.5975 I-0.1796 J0.3852
G3 X16.4906 Y8.7393 I-0.3133 J0.2871
G3 X16.5163 Y8.8846 I-0.3994 J0.1454
G3 X16.5158 Y8.9032 I-0.425 J0
G3 X16.4764 Y9.0642 I-0.4246 J-0.0185
G1 X15.5586 Y11.0326
G2 X15.5431 Y11.0888 I0.1586 J0.074
G2 X15.5422 Y11.1066 I0.1741 J0.0178
G2 X15.5469 Y11.147 I0.175 J0
G2 X15.5696 Y11.2006 I0.1703 J-0.0404
G2 X15.6086 Y11.2439 I0.1476 J-0.094
G2 X15.6597 Y11.2719 I0.1085 J-0.1373
G2 X15.7172 Y11.2816 I0.0575 J-0.1653
G1 X30.9109 Y11.2816
G1 Z-0.6 F30
G1 X31.4109 Y11.2816 F60
G1 Z-0.85 F30
G1 X31.6383 Y11.2816 F60
G3 X31.829 Y11.3118 I0 J0.6171
G3 X32.0011 Y11.3995 I-0.1907 J0.5869
G3 X32.1376 Y11.536 I-0.3627 J0.4993
G3 X32.2253 Y11.708 I-0.4993 J0.3627
G3 X32.2555 Y11.8987 I-0.5869 J0.1907
G1 X32.2555 Y11.8987
G3 X32.2253 Y12.0894 I-0.6171 J0
G3 X32.1376 Y12.2615 I-0.5869 J-0.1907
G3 X32.0011 Y12.398 I-0.4993 J-0.3627
G3 X31.829 Y12.4856 I-0.3627 J-0.4993
G3 X31.6383 Y12.5159 I-0.1907 J-0.5869
G0 Z0.15
G0 X14.3814 Y1.9443
G1 Z-0.1 F30
G1 X28.7158 Y1.9443 F60
G1 X29.2158 Y1.9443
G1 X31.0152 Y1.9443
G3 X31.1387 Y1.9559 I0 J0.6589
G3 X31.252 Y1.9898 I-0.1087 J0.5698
G3 X31.3561 Y2.046 I-0.222 J0.5359
G3 X31.4516 Y2.125 I-0.3704 J0.545
G3 X31.5307 Y2.2206 I-0.4659 J0.4659
G3 X31.5868 Y2.3246 I-0.4797 J0.326
G3 X31.6207 Y2.4379 I-0.5359 J0.222
G3 X31.6324 Y2.5614 I-0.6473 J0.1235
G1 X31.6324 Y2.5614
G3 X31.6207 Y2.6849 I-0.6589 J0
G3 X31.5868 Y2.7981 I-0.5698 J-0.1087
G3 X31.5307 Y2.9022 I-0.5359 J-0.222
G3 X31.4516 Y2.9978 I-0.545 J-0.3704
G3 X31.3561 Y3.0768 I-0.4659 J-0.4659
G3 X31.252 Y3.133 I-0.326 J-0.4797
G3 X31.1387 Y3.1668 I-0.222 J-0.5359
G3 X31.0152 Y3.1785 I-0.1235 J-0.6473
G1 X29.9054 Y3.1785
G1 X29.4054 Y3.1785
G1 X15.0941 Y3.1785
G2 X15.0366 Y3.1882 I0 J0.175
G2 X14.9855 Y3.2162 I0.0575 J0.1653
G2 X14.9465 Y3.2595 I0.1085 J0.1373
G2 X14.9238 Y3.3132 I0.1476 J0.094
G2 X14.9191 Y3.3535 I0.1703 J0.0404
G2 X14.92 Y3.3713 I0.175 J0
G2 X14.9355 Y3.4275 I0.1741 J-0.0178
G1 X15.8533 Y5.3959
G3 X15.8928 Y5.557 I-0.3852 J0.1796
G3 X15.8932 Y5.5755 I-0.4246 J0.0185
G3 X15.8675 Y5.7208 I-0.425 J0
G3 X15.7815 Y5.8626 I-0.3994 J-0.1454
G3 X15.6478 Y5.9607 I-0.3133 J-0.2871
G1 X15.3844 Y6.0835
G3 X15.2183 Y6.023 I-0.0528 J-0.1133
G1 X14.8078 Y5.1427
G1 X14.5965 Y4.6895
G1 X13.5545 Y2.4549
G3 X13.5428 Y2.402 I0.1133 J-0.0528
G3 X13.6149 Y2.2887 I0.125 J0
G1 X14.3286 Y1.956
G3 X14.3814 Y1.9443 I0.0528 J0.1133
G1 Z-0.2 F30
G1 X28.7158 Y1.9443 F60
G1 X29.2158 Y1.9443
G1 X31.0152 Y1.9443
G3 X31.1387 Y1.9559 I0 J0.6589
G3 X31.252 Y1.9898 I-0.1087 J0.5698
G3 X31.3561 Y2.046 I-0.222 J0.5359
G3 X31.4516 Y2.125 I-0.3704 J0.545
G3 X31.5307 Y2.2206 I-0.4659 J0.4659
G3 X31.5868 Y2.3246 I-0.4797 J0.326
G3 X31.6207 Y2.4379 I-0.5359 J0.222
G3 X31.6324 Y2.5614 I-0.6473 J0.1235
G1 X31.6324 Y2.5614
G3 X31.6207 Y2.6849 I-0.6589 J0
G3 X31.5868 Y2.7981 I-0.5698 J-0.1087
G3 X31.5307 Y2.9022 I-0.5359 J-0.222
G3 X31.4516 Y2.9978 I-0.545 J-0.3704
G3 X31.3561 Y3.0768 I-0.4659 J-0.4659
G3 X31.252 Y3.133 I-0.326 J-0.4797
G3 X31.1387 Y3.1668 I-0.222 J-0.5359
G3 X31.0152 Y3.1785 I-0.1235 J-0.6473
G1 X29.9054 Y3.1785
G1 X29.4054 Y3.1785
G1 X15.0941 Y3.1785
G2 X15.0366 Y3.1882 I0 J0.175
G2 X14.9855 Y3.2162 I0.0575 J0.1653
G2 X14.9465 Y3.2595 I0.1085 J0.1373
G2 X14.9238 Y3.3132 I0.1476 J0.094
G2 X14.9191 Y3.3535 I0.1703 J0.0404
G2 X14.92 Y3.3713 I0.175 J0
G2 X14.9355 Y3.4275 I0.1741 J-0.0178
G1 X15.8533 Y5.3959
G3 X15.8928 Y5.557 I-0.3852 J0.1796
G3 X15.8932 Y5.5755 I-0.4246 J0.0185
G3 X15.8675 Y5.7208 I-0.425 J0
G3 X15.7815 Y5.8626 I-0.3994 J-0.1454
G3 X15.6478 Y5.9607 I-0.3133 J-0.2871
G1 X15.3844 Y6.0835
G3 X15.2183 Y6.023 I-0.0528 J-0.1133
G1 X14.8078 Y5.1427
G1 X14.5965 Y4.6895
G1 X13.5545 Y2.4549
G3 X13.5428 Y2.402 I0.1133 J-0.0528
G3 X13.6149 Y2.2887 I0.125 J0
G1 X14.3286 Y1.956
G3 X14.3814 Y1.9443 I0.0528 J0.1133
G1 Z-0.3 F30
G1 X28.7158 Y1.9443 F60
G1 X29.2158 Y1.9443
G1 X31.0152 Y1.9443
G3 X31.1387 Y1.9559 I0 J0.6589
G3 X31.252 Y1.9898 I-0.1087 J0.5698
G3 X31.3561 Y2.046 I-0.222 J0.5359
G3 X31.4516 Y2.125 I-0.3704 J0.545
G3 X31.5307 Y2.2206 I-0.4659 J0.4659
G3 X31.5868 Y2.3246 I-0.4797 J0.326
G3 X31.6207 Y2.4379 I-0.5359 J0.222
G3 X31.6324 Y2.5614 I-0.6473 J0.1235
G1 X31.6324 Y2.5614
G3 X31.6207 Y2.6849 I-0.6589 J0
G3 X31.5868 Y2.7981 I-0.5698 J-0.1087
G3 X31.5307 Y2.9022 I-0.5359 J-0.222
G3 X31.4516 Y2.9978 I-0.545 J-0.3704
G3 X31.3561 Y3.0768 I-0.4659 J-0.4659
G3 X31.252 Y3.133 I-0.326 J-0.4797
G3 X31.1387 Y3.1668 I-0.222 J-0.5359
G3 X31.0152 Y3.1785 I-0.1235 J-0.6473
G1 X29.9054 Y3.1785
G1 X29.4054 Y3.1785
G1 X15.0941 Y3.1785
G2 X15.0366 Y3.1882 I0 J0.175
G2 X14.9855 Y3.2162 I0.0575 J0.1653
G2 X14.9465 Y3.2595 I0.1085 J0.1373
G2 X14.9238 Y3.3132 I0.1476 J0.094
G2 X14.9191 Y3.3535 I0.1703 J0.0404
G2 X14.92 Y3.3713 I0.175 J0
G2 X14.9355 Y3.4275 I0.1741 J-0.0178
G1 X15.8533 Y5.3959
G3 X15.8928 Y5.557 I-0.3852 J0.1796
G3 X15.8932 Y5.5755 I-0.4246 J0.0185
G3 X15.8675 Y5.7208 I-0.425 J0
G3 X15.7815 Y5.8626 I-0.3994 J-0.1454
G3 X15.6478 Y5.9607 I-0.3133 J-0.2871
G1 X15.3844 Y6.0835
G3 X15.2183 Y6.023 I-0.0528 J-0.1133
G1 X14.8078 Y5.1427
G1 X14.5965 Y4.6895
G1 X13.5545 Y2.4549
G3 X13.5428 Y2.402 I0.1133 J-0.0528
G3 X13.6149 Y2.2887 I0.125 J0
G1 X14.3286 Y1.956
G3 X14.3814 Y1.9443 I0.0528 J0.1133
G1 Z-0.4 F30
G1 X28.7158 Y1.9443 F60
G1 X29.2158 Y1.9443
G1 X31.0152 Y1.9443
G3 X31.1387 Y1.9559 I0 J0.6589
G3 X31.252 Y1.9898 I-0.1087 J0.5698
G3 X31.3561 Y2.046 I-0.222 J0.5359
G3 X31.4516 Y2.125 I-0.3704 J0.545
G3 X31.5307 Y2.2206 I-0.4659 J0.4659
G3 X31.5868 Y2.3246 I-0.4797 J0.326
G3 X31.6207 Y2.4379 I-0.5359 J0.222
G3 X31.6324 Y2.5614 I-0.6473 J0.1235
G1 X31.6324 Y2.5614
G3 X31.6207 Y2.6849 I-0.6589 J0
G3 X31.5868 Y2.7981 I-0.5698 J-0.1087
G3 X31.5307 Y2.9022 I-0.5359 J-0.222
G3 X31.4516 Y2.9978 I-0.545 J-0.3704
G3 X31.3561 Y3.0768 I-0.4659 J-0.4659
G3 X31.252 Y3.133 I-0.326 J-0.4797
G3 X31.1387 Y3.1668 I-0.222 J-0.5359
G3 X31.0152 Y3.1785 I-0.1235 J-0.6473
G1 X29.9054 Y3.1785
G1 X29.4054 Y3.1785
G1 X15.0941 Y3.1785
G2 X15.0366 Y3.1882 I0 J0.175
G2 X14.9855 Y3.2162 I0.0575 J0.1653
G2 X14.9465 Y3.2595 I0.1085 J0.1373
G2 X14.9238 Y3.3132 I0.1476 J0.094
G2 X14.9191 Y3.3535 I0.1703 J0.0404
G2 X14.92 Y3.3713 I0.175 J0
G2 X14.9355 Y3.4275 I0.1741 J-0.0178
G1 X15.8533 Y5.3959
G3 X15.8928 Y5.557 I-0.3852 J0.1796
G3 X15.8932 Y5.5755 I-0.4246 J0.0185
G3 X15.8675 Y5.7208 I-0.425 J0
G3 X15.7815 Y5.8626 I-0.3994 J-0.1454
G3 X15.6478 Y5.9607 I-0.3133 J-0.2871
G1 X15.3844 Y6.0835
G3 X15.2183 Y6.023 I-0.0528 J-0.1133
G1 X14.8078 Y5.1427
G1 X14.5965 Y4.6895
G1 X13.5545 Y2.4549
G3 X13.5428 Y2.402 I0.1133 J-0.0528
G3 X13.6149 Y2.2887 I0.125 J0
G1 X14.3286 Y1.956
G3 X14.3814 Y1.9443 I0.0528 J0.1133
G1 Z-0.5 F30
G1 X28.7158 Y1.9443 F60
G1 X29.2158 Y1.9443
G1 X31.0152 Y1.9443
G3 X31.1387 Y1.9559 I0 J0.6589
G3 X31.252 Y1.9898 I-0.1087 J0.5698
G3 X31.3561 Y2.046 I-0.222 J0.5359
G3 X31.4516 Y2.125 I-0.3704 J0.545
G3 X31.5307 Y2.2206 I-0.4659 J0.4659
G3 X31.5868 Y2.3246 I-0.4797 J0.326
G3 X31.6207 Y2.4379 I-0.5359 J0.222
G3 X31.6324 Y2.5614 I-0.6473 J0.1235
G1 X31.6324 Y2.5614
G3 X31.6207 Y2.6849 I-0.6589 J0
G3 X31.5868 Y2.7981 I-0.5698 J-0.1087
G3 X31.5307 Y2.9022 I-0.5359 J-0.222
G3 X31.4516 Y2.9978 I-0.545 J-0.3704
G3 X31.3561 Y3.0768 I-0.4659 J-0.4659
G3 X31.252 Y3.133 I-0.326 J-0.4797
G3 X31.1387 Y3.1668 I-0.222 J-0.5359
G3 X31.0152 Y3.1785 I-0.1235 J-0.6473
G1 X29.9054 Y3.1785
G1 X29.4054 Y3.1785
G1 X15.0941 Y3.1785
G2 X15.0366 Y3.1882 I0 J0.175
G2 X14.9855 Y3.2162 I0.0575 J0.1653
G2 X14.9465 Y3.2595 I0.1085 J0.1373
G2 X14.9238 Y3.3132 I0.1476 J0.094
G2 X14.9191 Y3.3535 I0.1703 J0.0404
G2 X14.92 Y3.3713 I0.175 J0
G2 X14.9355 Y3.4275 I0.1741 J-0.0178
G1 X15.8533 Y5.3959
G3 X15.8928 Y5.557 I-0.3852 J0.1796
G3 X15.8932 Y5.5755 I-0.4246 J0.0185
G3 X15.8675 Y5.7208 I-0.425 J0
G3 X15.7815 Y5.8626 I-0.3994 J-0.1454
G3 X15.6478 Y5.9607 I-0.3133 J-0.2871
G1 X15.3844 Y6.0835
G3 X15.2183 Y6.023 I-0.0528 J-0.1133
G1 X14.8078 Y5.1427
G1 X14.5965 Y4.6895
G1 X13.5545 Y2.4549
G3 X13.5428 Y2.402 I0.1133 J-0.0528
G3 X13.6149 Y2.2887 I0.125 J0
G1 X14.3286 Y1.956
G3 X14.3814 Y1.9443 I0.0528 J0.1133
G1 Z-0.6 F30
G1 X28.7158 Y1.9443 F60
G1 X29.2158 Y1.9443
G1 X31.0152 Y1.9443
G3 X31.1387 Y1.9559 I0 J0.6589
G3 X31.252 Y1.9898 I-0.1087 J0.5698
G3 X31.3561 Y2.046 I-0.222 J0.5359
G3 X31.4516 Y2.125 I-0.3704 J0.545
G3 X31.5307 Y2.2206 I-0.4659 J0.4659
G3 X31.5868 Y2.3246 I-0.4797 J0.326
G3 X31.6207 Y2.4379 I-0.5359 J0.222
G3 X31.6324 Y2.5614 I-0.6473 J0.1235
G1 X31.6324 Y2.5614
G3 X31.6207 Y2.6849 I-0.6589 J0
G3 X31.5868 Y2.7981 I-0.5698 J-0.1087
G3 X31.5307 Y2.9022 I-0.5359 J-0.222
G3 X31.4516 Y2.9978 I-0.545 J-0.3704
G3 X31.3561 Y3.0768 I-0.4659 J-0.4659
G3 X31.252 Y3.133 I-0.326 J-0.4797
G3 X31.1387 Y3.1668 I-0.222 J-0.5359
G3 X31.0152 Y3.1785 I-0.1235 J-0.6473
G1 X29.9054 Y3.1785
G1 X29.4054 Y3.1785
G1 X15.0941 Y3.1785
G2 X15.0366 Y3.1882 I0 J0.175
G2 X14.9855 Y3.2162 I0.0575 J0.1653
G2 X14.9465 Y3.2595 I0.1085 J0.1373
G2 X14.9238 Y3.3132 I0.1476 J0.094
G2 X14.9191 Y3.3535 I0.1703 J0.0404
G2 X14.92 Y3.3713 I0.175 J0
G2 X14.9355 Y3.4275 I0.1741 J-0.0178
G1 X15.8533 Y5.3959
G3 X15.8928 Y5.557 I-0.3852 J0.1796
G3 X15.8932 Y5.5755 I-0.4246 J0.0185
G3 X15.8675 Y5.7208 I-0.425 J0
G3 X15.7815 Y5.8626 I-0.3994 J-0.1454
G3 X15.6478 Y5.9607 I-0.3133 J-0.2871
G1 X15.3844 Y6.0835
G3 X15.2183 Y6.023 I-0.0528 J-0.1133
G1 X14.8078 Y5.1427
G1 X14.5965 Y4.6895
G1 X13.5545 Y2.4549
G3 X13.5428 Y2.402 I0.1133 J-0.0528
G3 X13.6149 Y2.2887 I0.125 J0
G1 X14.3286 Y1.956
G3 X14.3814 Y1.9443 I0.0528 J0.1133
G1 Z-0.7 F30
G1 X28.7158 Y1.9443 F60
G1 Z-0.6 F30
G1 X29.2158 Y1.9443 F60
G1 Z-0.7 F30
G1 X31.0152 Y1.9443 F60
G3 X31.1387 Y1.9559 I0 J0.6589
G3 X31.252 Y1.9898 I-0.1087 J0.5698
G3 X31.3561 Y2.046 I-0.222 J0.5359
G3 X31.4516 Y2.125 I-0.3704 J0.545
G3 X31.5307 Y2.2206 I-0.4659 J0.4659
G3 X31.5868 Y2.3246 I-0.4797 J0.326
G3 X31.6207 Y2.4379 I-0.5359 J0.222
G3 X31.6324 Y2.5614 I-0.6473 J0.1235
G1 X31.6324 Y2.5614
G3 X31.6207 Y2.6849 I-0.6589 J0
G3 X31.5868 Y2.7981 I-0.5698 J-0.1087
G3 X31.5307 Y2.9022 I-0.5359 J-0.222
G3 X31.4516 Y2.9978 I-0.545 J-0.3704
G3 X31.3561 Y3.0768 I-0.4659 J-0.4659
G3 X31.252 Y3.133 I-0.326 J-0.4797
G3 X31.1387 Y3.1668 I-0.222 J-0.5359
G3 X31.0152 Y3.1785 I-0.1235 J-0.6473
G1 X29.9054 Y3.1785
G1 Z-0.6 F30
G1 X29.4054 Y3.1785 F60
G1 Z-0.7 F30
G1 X15.0941 Y3.1785 F60
G2 X15.0366 Y3.1882 I0 J0.175
G2 X14.9855 Y3.2162 I0.0575 J0.1653
G2 X14.9465 Y3.2595 I0.1085 J0.1373
G2 X14.9238 Y3.3132 I0.1476 J0.094
G2 X14.9191 Y3.3535 I0.1703 J0.0404
G2 X14.92 Y3.3713 I0.175 J0
G2 X14.9355 Y3.4275 I0.1741 J-0.0178
G1 X15.8533 Y5.3959
G3 X15.8928 Y5.557 I-0.3852 J0.1796
G3 X15.8932 Y5.5755 I-0.4246 J0.0185
G3 X15.8675 Y5.7208 I-0.425 J0
G3 X15.7815 Y5.8626 I-0.3994 J-0.1454
G3 X15.6478 Y5.9607 I-0.3133 J-0.2871
G1 X15.3844 Y6.0835
G3 X15.2183 Y6.023 I-0.0528 J-0.1133
G1 X14.8078 Y5.1427
G1 Z-0.6 F30
G1 X14.5965 Y4.6895 F60
G1 Z-0.7 F30
G1 X13.5545 Y2.4549 F60
G3 X13.5428 Y2.402 I0.1133 J-0.0528
G3 X13.6149 Y2.2887 I0.125 J0
G1 X14.3286 Y1.956
G3 X14.3814 Y1.9443 I0.0528 J0.1133
G1 Z-0.8 F30
G1 X28.7158 Y1.9443 F60
G1 Z-0.6 F30
G1 X29.2158 Y1.9443 F60
G1 Z-0.8 F30
G1 X31.0152 Y1.9443 F60
G3 X31.1387 Y1.9559 I0 J0.6589
G3 X31.252 Y1.9898 I-0.1087 J0.5698
G3 X31.3561 Y2.046 I-0.222 J0.5359
G3 X31.4516 Y2.125 I-0.3704 J0.545
G3 X31.5307 Y2.2206 I-0.4659 J0.4659
G3 X31.5868 Y2.3246 I-0.4797 J0.326
G3 X31.6207 Y2.4379 I-0.5359 J0.222
G3 X31.6324 Y2.5614 I-0.6473 J0.1235
G1 X31.6324 Y2.5614
G3 X31.6207 Y2.6849 I-0.6589 J0
G3 X31.5868 Y2.7981 I-0.5698 J-0.1087
G3 X31.5307 Y2.9022 I-0.5359 J-0.222
G3 X31.4516 Y2.9978 I-0.545 J-0.3704
G3 X31.3561 Y3.0768 I-0.4659 J-0.4659
G3 X31.252 Y3.133 I-0.326 J-0.4797
G3 X31.1387 Y3.1668 I-0.222 J-0.5359
G3 X31.0152 Y3.1785 I-0.1235 J-0.6473
G1 X29.9054 Y3.1785
G1 Z-0.6 F30
G1 X29.4054 Y3.1785 F60
G1 Z-0.8 F30
G1 X15.0941 Y3.1785 F60
G2 X15.0366 Y3.1882 I0 J0.175
G2 X14.9855 Y3.2162 I0.0575 J0.1653
G2 X14.9465 Y3.2595 I0.1085 J0.1373
G2 X14.9238 Y3.3132 I0.1476 J0.094
G2 X14.9191 Y3.3535 I0.1703 J0.0404
G2 X14.92 Y3.3713 I0.175 J0
G2 X14.9355 Y3.4275 I0.1741 J-0.0178
G1 X15.8533 Y5.3959
G3 X15.8928 Y5.557 I-0.3852 J0.1796
G3 X15.8932 Y5.5755 I-0.4246 J0.0185
G3 X15.8675 Y5.7208 I-0.425 J0
G3 X15.7815 Y5.8626 I-0.3994 J-0.1454
G3 X15.6478 Y5.9607 I-0.3133 J-0.2871
G1 X15.3844 Y6.0835
G3 X15.2183 Y6.023 I-0.0528 J-0.1133
G1 X14.8078 Y5.1427
G1 Z-0.6 F30
G1 X14.5965 Y4.6895 F60
G1 Z-0.8 F30
G1 X13.5545 Y2.4549 F60
G3 X13.5428 Y2.402 I0.1133 J-0.0528
G3 X13.6149 Y2.2887 I0.125 J0
G1 X14.3286 Y1.956
G3 X14.3814 Y1.9443 I0.0528 J0.1133
G1 Z-0.85 F30
G1 X28.7158 Y1.9443 F60
G1 Z-0.6 F30
G1 X29.2158 Y1.9443 F60
G1 Z-0.85 F30
G1 X31.0152 Y1.9443 F60
G3 X31.1387 Y1.9559 I0 J0.6589
G3 X31.252 Y1.9898 I-0.1087 J0.5698
G3 X31.3561 Y2.046 I-0.222 J0.5359
G3 X31.4516 Y2.125 I-0.3704 J0.545
G3 X31.5307 Y2.2206 I-0.4659 J0.4659
G3 X31.5868 Y2.3246 I-0.4797 J0.326
G3 X31.6207 Y2.4379 I-0.5359 J0.222
G3 X31.6324 Y2.5614 I-0.6473 J0.1235
G1 X31.6324 Y2.5614
G3 X31.6207 Y2.6849 I-0.6589 J0
G3 X31.5868 Y2.7981 I-0.5698 J-0.1087
G3 X31.5307 Y2.9022 I-0.5359 J-0.222
G3 X31.4516 Y2.9978 I-0.545 J-0.3704
G3 X31.3561 Y3.0768 I-0.4659 J-0.4659
G3 X31.252 Y3.133 I-0.326 J-0.4797
G3 X31.1387 Y3.1668 I-0.222 J-0.5359
G3 X31.0152 Y3.1785 I-0.1235 J-0.6473
G1 X29.9054 Y3.1785
G1 Z-0.6 F30
G1 X29.4054 Y3.1785 F60
G1 Z-0.85 F30
G1 X15.0941 Y3.1785 F60
G2 X15.0366 Y3.1882 I0 J0.175
G2 X14.9855 Y3.2162 I0.0575 J0.1653
G2 X14.9465 Y3.2595 I0.1085 J0.1373
G2 X14.9238 Y3.3132 I0.1476 J0.094
G2 X14.9191 Y3.3535 I0.1703 J0.0404
G2 X14.92 Y3.3713 I0.175 J0
G2 X14.9355 Y3.4275 I0.1741 J-0.0178
G1 X15.8533 Y5.3959
G3 X15.8928 Y5.557 I-0.3852 J0.1796
G3 X15.8932 Y5.5755 I-0.4246 J0.0185
G3 X15.8675 Y5.7208 I-0.425 J0
G3 X15.7815 Y5.8626 I-0.3994 J-0.1454
G3 X15.6478 Y5.9607 I-0.3133 J-0.2871
G1 X15.3844 Y6.0835
G3 X15.2183 Y6.023 I-0.0528 J-0.1133
G1 X14.8078 Y5.1427
G1 Z-0.6 F30
G1 X14.5965 Y4.6895 F60
G1 Z-0.85 F30
G1 X13.5545 Y2.4549 F60
G3 X13.5428 Y2.402 I0.1133 J-0.0528
G3 X13.6149 Y2.2887 I0.125 J0
G1 X14.3286 Y1.956
G3 X14.3814 Y1.9443 I0.0528 J0.1133
G0 Z0.15
G0 X12.5628 Y0.5523
G1 Z-0.1 F30
G1 X25.7322 Y0.5523 F60
G1 X26.2322 Y0.5523
G1 X29.1966 Y0.5523
G3 X29.3201 Y0.5639 I0 J0.6589
G3 X29.4334 Y0.5978 I-0.1087 J0.5698
G3 X29.5374 Y0.654 I-0.222 J0.5359
G3 X29.633 Y0.733 I-0.3704 J0.545
G3 X29.712 Y0.8286 I-0.4659 J0.4659
G3 X29.7682 Y0.9326 I-0.4797 J0.326
G3 X29.8021 Y1.0459 I-0.5359 J0.222
G3 X29.8137 Y1.1694 I-0.6473 J0.1235
G1 X29.8137 Y1.1694
G3 X29.8021 Y1.2929 I-0.6589 J0
G3 X29.7682 Y1.4062 I-0.5698 J-0.1087
G3 X29.712 Y1.5102 I-0.5359 J-0.222
G3 X29.633 Y1.6058 I-0.545 J-0.3704
G3 X29.5374 Y1.6848 I-0.4659 J-0.4659
G3 X29.4334 Y1.741 I-0.326 J-0.4797
G3 X29.3201 Y1.7749 I-0.222 J-0.5359
G3 X29.1966 Y1.7865 I-0.1235 J-0.6473
G1 X29.1655 Y1.7865
G1 X28.6655 Y1.7865
G1 X13.2754 Y1.7865
G2 X13.218 Y1.7962 I0 J0.175
G2 X13.1669 Y1.8243 I0.0575 J0.1653
G2 X13.1278 Y1.8675 I0.1085 J0.1373
G2 X13.1051 Y1.9212 I0.1476 J0.094
G2 X13.1004 Y1.9615 I0.1703 J0.0404
G2 X13.1013 Y1.9793 I0.175 J0
G2 X13.1168 Y2.0355 I0.1741 J-0.0178
G1 X14.0347 Y4.0039
G3 X14.0741 Y4.165 I-0.3852 J0.1796
G3 X14.0745 Y4.1835 I-0.4246 J0.0185
G3 X14.0489 Y4.3289 I-0.425 J0
G3 X13.9629 Y4.4706 I-0.3994 J-0.1454
G3 X13.8291 Y4.5687 I-0.3133 J-0.2871
G1 X13.5658 Y4.6915
G3 X13.3997 Y4.631 I-0.0528 J-0.1133
G1 X12.3692 Y2.4211
G1 X12.1579 Y1.9679
G1 X11.7358 Y1.0629
G3 X11.7241 Y1.01 I0.1133 J-0.0528
G3 X11.7963 Y0.8968 I0.125 J0
G1 X12.5099 Y0.564
G3 X12.5628 Y0.5523 I0.0528 J0.1133
G1 Z-0.2 F30
G1 X25.7322 Y0.5523 F60
G1 X26.2322 Y0.5523
G1 X29.1966 Y0.5523
G3 X29.3201 Y0.5639 I0 J0.6589
G3 X29.4334 Y0.5978 I-0.1087 J0.5698
G3 X29.5374 Y0.654 I-0.222 J0.5359
G3 X29.633 Y0.733 I-0.3704 J0.545
G3 X29.712 Y0.8286 I-0.4659 J0.4659
G3 X29.7682 Y0.9326 I-0.4797 J0.326
G3 X29.8021 Y1.0459 I-0.5359 J0.222
G3 X29.8137 Y1.1694 I-0.6473 J0.1235
G1 X29.8137 Y1.1694
G3 X29.8021 Y1.2929 I-0.6589 J0
G3 X29.7682 Y1.4062 I-0.5698 J-0.1087
G3 X29.712 Y1.5102 I-0.5359 J-0.222
G3 X29.633 Y1.6058 I-0.545 J-0.3704
G3 X29.5374 Y1.6848 I-0.4659 J-0.4659
G3 X29.4334 Y1.741 I-0.326 J-0.4797
G3 X29.3201 Y1.7749 I-0.222 J-0.5359
G3 X29.1966 Y1.7865 I-0.1235 J-0.6473
G1 X29.1655 Y1.7865
G1 X28.6655 Y1.7865
G1 X13.2754 Y1.7865
G2 X13.218 Y1.7962 I0 J0.175
G2 X13.1669 Y1.8243 I0.0575 J0.1653
G2 X13.1278 Y1.8675 I0.1085 J0.1373
G2 X13.1051 Y1.9212 I0.1476 J0.094
G2 X13.1004 Y1.9615 I0.1703 J0.0404
G2 X13.1013 Y1.9793 I0.175 J0
G2 X13.1168 Y2.0355 I0.1741 J-0.0178
G1 X14.0347 Y4.0039
G3 X14.0741 Y4.165 I-0.3852 J0.1796
G3 X14.0745 Y4.1835 I-0.4246 J0.0185
G3 X14.0489 Y4.3289 I-0.425 J0
G3 X13.9629 Y4.4706 I-0.3994 J-0.1454
G3 X13.8291 Y4.5687 I-0.3133 J-0.2871
G1 X13.5658 Y4.6915
G3 X13.3997 Y4.631 I-0.0528 J-0.1133
G1 X12.3692 Y2.4211
G1 X12.1579 Y1.9679
G1 X11.7358 Y1.0629
G3 X11.7241 Y1.01 I0.1133 J-0.0528
G3 X11.7963 Y0.8968 I0.125 J0
G1 X12.5099 Y0.564
G3 X12.5628 Y0.5523 I0.0528 J0.1133
G1 Z-0.3 F30
G1 X25.7322 Y0.5523 F60
G1 X26.2322 Y0.5523
G1 X29.1966 Y0.5523
G3 X29.3201 Y0.5639 I0 J0.6589
G3 X29.4334 Y0.5978 I-0.1087 J0.5698
G3 X29.5374 Y0.654 I-0.222 J0.5359
G3 X29.633 Y0.733 I-0.3704 J0.545
G3 X29.712 Y0.8286 I-0.4659 J0.4659
G3 X29.7682 Y0.9326 I-0.4797 J0.326
G3 X29.8021 Y1.0459 I-0.5359 J0.222
G3 X29.8137 Y1.1694 I-0.6473 J0.1235
G1 X29.8137 Y1.1694
G3 X29.8021 Y1.2929 I-0.6589 J0
G3 X29.7682 Y1.4062 I-0.5698 J-0.1087
G3 X29.712 Y1.5102 I-0.5359 J-0.222
G3 X29.633 Y1.6058 I-0.545 J-0.3704
G3 X29.5374 Y1.6848 I-0.4659 J-0.4659
G3 X29.4334 Y1.741 I-0.326 J-0.4797
G3 X29.3201 Y1.7749 I-0.222 J-0.5359
G3 X29.1966 Y1.7865 I-0.1235 J-0.6473
G1 X29.1655 Y1.7865
G1 X28.6655 Y1.7865
G1 X13.2754 Y1.7865
G2 X13.218 Y1.7962 I0 J0.175
G2 X13.1669 Y1.8243 I0.0575 J0.1653
G2 X13.1278 Y1.8675 I0.1085 J0.1373
G2 X13.1051 Y1.9212 I0.1476 J0.094
G2 X13.1004 Y1.9615 I0.1703 J0.0404
G2 X13.1013 Y1.9793 I0.175 J0
G2 X13.1168 Y2.0355 I0.1741 J-0.0178
G1 X14.0347 Y4.0039
G3 X14.0741 Y4.165 I-0.3852 J0.1796
G3 X14.0745 Y4.1835 I-0.4246 J0.0185
G3 X14.0489 Y4.3289 I-0.425 J0
G3 X13.9629 Y4.4706 I-0.3994 J-0.1454
G3 X13.8291 Y4.5687 I-0.3133 J-0.2871
G1 X13.5658 Y4.6915
G3 X13.3997 Y4.631 I-0.0528 J-0.1133
G1 X12.3692 Y2.4211
G1 X12.1579 Y1.9679
G1 X11.7358 Y1.0629
G3 X11.7241 Y1.01 I0.1133 J-0.0528
G3 X11.7963 Y0.8968 I0.125 J0
G1 X12.5099 Y0.564
G3 X12.5628 Y0.5523 I0.0528 J0.1133
G1 Z-0.4 F30
G1 X25.7322 Y0.5523 F60
G1 X26.2322 Y0.5523
G1 X29.1966 Y0.5523
G3 X29.3201 Y0.5639 I0 J0.6589
G3 X29.4334 Y0.5978 I-0.1087 J0.5698
G3 X29.5374 Y0.654 I-0.222 J0.5359
G3 X29.633 Y0.733 I-0.3704 J0.545
G3 X29.712 Y0.8286 I-0.4659 J0.4659
G3 X29.7682 Y0.9326 I-0.4797 J0.326
G3 X29.8021 Y1.0459 I-0.5359 J0.222
G3 X29.8137 Y1.1694 I-0.6473 J0.1235
G1 X29.8137 Y1.1694
G3 X29.8021 Y1.2929 I-0.6589 J0
G3 X29.7682 Y1.4062 I-0.5698 J-0.1087
G3 X29.712 Y1.5102 I-0.5359 J-0.222
G3 X29.633 Y1.6058 I-0.545 J-0.3704
G3 X29.5374 Y1.6848 I-0.4659 J-0.4659
G3 X29.4334 Y1.741 I-0.326 J-0.4797
G3 X29.3201 Y1.7749 I-0.222 J-0.5359
G3 X29.1966 Y1.7865 I-0.1235 J-0.6473
G1 X29.1655 Y1.7865
G1 X28.6655 Y1.7865
G1 X13.2754 Y1.7865
G2 X13.218 Y1.7962 I0 J0.175
G2 X13.1669 Y1.8243 I0.0575 J0.1653
G2 X13.1278 Y1.8675 I0.1085 J0.1373
G2 X13.1051 Y1.9212 I0.1476 J0.094
G2 X13.1004 Y1.9615 I0.1703 J0.0404
G2 X13.1013 Y1.9793 I0.175 J0
G2 X13.1168 Y2.0355 I0.1741 J-0.0178
G1 X14.0347 Y4.0039
G3 X14.0741 Y4.165 I-0.3852 J0.1796
G3 X14.0745 Y4.1835 I-0.4246 J0.0185
G3 X14.0489 Y4.3289 I-0.425 J0
G3 X13.9629 Y4.4706 I-0.3994 J-0.1454
G3 X13.8291 Y4.5687 I-0.3133 J-0.2871
G1 X13.5658 Y4.6915
G3 X13.3997 Y4.631 I-0.0528 J-0.1133
G1 X12.3692 Y2.4211
G1 X12.1579 Y1.9679
G1 X11.7358 Y1.0629
G3 X11.7241 Y1.01 I0.1133 J-0.0528
G3 X11.7963 Y0.8968 I0.125 J0
G1 X12.5099 Y0.564
G3 X12.5628 Y0.5523 I0.0528 J0.1133
G1 Z-0.5 F30
G1 X25.7322 Y0.5523 F60
G1 X26.2322 Y0.5523
G1 X29.1966 Y0.5523
G3 X29.3201 Y0.5639 I0 J0.6589
G3 X29.4334 Y0.5978 I-0.1087 J0.5698
G3 X29.5374 Y0.654 I-0.222 J0.5359
G3 X29.633 Y0.733 I-0.3704 J0.545
G3 X29.712 Y0.8286 I-0.4659 J0.4659
G3 X29.7682 Y0.9326 I-0.4797 J0.326
G3 X29.8021 Y1.0459 I-0.5359 J0.222
G3 X29.8137 Y1.1694 I-0.6473 J0.1235
G1 X29.8137 Y1.1694
G3 X29.8021 Y1.2929 I-0.6589 J0
G3 X29.7682 Y1.4062 I-0.5698 J-0.1087
G3 X29.712 Y1.5102 I-0.5359 J-0.222
G3 X29.633 Y1.6058 I-0.545 J-0.3704
G3 X29.5374 Y1.6848 I-0.4659 J-0.4659
G3 X29.4334 Y1.741 I-0.326 J-0.4797
G3 X29.3201 Y1.7749 I-0.222 J-0.5359
G3 X29.1966 Y1.7865 I-0.1235 J-0.6473
G1 X29.1655 Y1.7865
G1 X28.6655 Y1.7865
G1 X13.2754 Y1.7865
G2 X13.218 Y1.7962 I0 J0.175
G2 X13.1669 Y1.8243 I0.0575 J0.1653
G2 X13.1278 Y1.8675 I0.1085 J0.1373
G2 X13.1051 Y1.9212 I0.1476 J0.094
G2 X13.1004 Y1.9615 I0.1703 J0.0404
G2 X13.1013 Y1.9793 I0.175 J0
G2 X13.1168 Y2.0355 I0.1741 J-0.0178
G1 X14.0347 Y4.0039
G3 X14.0741 Y4.165 I-0.3852 J0.1796
G3 X14.0745 Y4.1835 I-0.4246 J0.0185
G3 X14.0489 Y4.3289 I-0.425 J0
G3 X13.9629 Y4.4706 I-0.3994 J-0.1454
G3 X13.8291 Y4.5687 I-0.3133 J-0.2871
G1 X13.5658 Y4.6915
G3 X13.3997 Y4.631 I-0.0528 J-0.1133
G1 X12.3692 Y2.4211
G1 X12.1579 Y1.9679
G1 X11.7358 Y1.0629
G3 X11.7241 Y1.01 I0.1133 J-0.0528
G3 X11.7963 Y0.8968 I0.125 J0
G1 X12.5099 Y0.564
G3 X12.5628 Y0.5523 I0.0528 J0.1133
G1 Z-0.6 F30
G1 X25.7322 Y0.5523 F60
G1 X26.2322 Y0.5523
G1 X29.1966 Y0.5523
G3 X29.3201 Y0.5639 I0 J0.6589
G3 X29.4334 Y0.5978 I-0.1087 J0.5698
G3 X29.5374 Y0.654 I-0.222 J0.5359
G3 X29.633 Y0.733 I-0.3704 J0.545
G3 X29.712 Y0.8286 I-0.4659 J0.4659
G3 X29.7682 Y0.9326 I-0.4797 J0.326
G3 X29.8021 Y1.0459 I-0.5359 J0.222
G3 X29.8137 Y1.1694 I-0.6473 J0.1235
G1 X29.8137 Y1.1694
G3 X29.8021 Y1.2929 I-0.6589 J0
G3 X29.7682 Y1.4062 I-0.5698 J-0.1087
G3 X29.712 Y1.5102 I-0.5359 J-0.222
G3 X29.633 Y1.6058 I-0.545 J-0.3704
G3 X29.5374 Y1.6848 I-0.4659 J-0.4659
G3 X29.4334 Y1.741 I-0.326 J-0.4797
G3 X29.3201 Y1.7749 I-0.222 J-0.5359
G3 X29.1966 Y1.7865 I-0.1235 J-0.6473
G1 X29.1655 Y1.7865
G1 X28.6655 Y1.7865
G1 X13.2754 Y1.7865
G2 X13.218 Y1.7962 I0 J0.175
G2 X13.1669 Y1.8243 I0.0575 J0.1653
G2 X13.1278 Y1.8675 I0.1085 J0.1373
G2 X13.1051 Y1.9212 I0.1476 J0.094
G2 X13.1004 Y1.9615 I0.1703 J0.0404
G2 X13.1013 Y1.9793 I0.175 J0
G2 X13.1168 Y2.0355 I0.1741 J-0.0178
G1 X14.0347 Y4.0039
G3 X14.0741 Y4.165 I-0.3852 J0.1796
G3 X14.0745 Y4.1835 I-0.4246 J0.0185
G3 X14.0489 Y4.3289 I-0.425 J0
G3 X13.9629 Y4.4706 I-0.3994 J-0.1454
G3 X13.8291 Y4.5687 I-0.3133 J-0.2871
G1 X13.5658 Y4.6915
G3 X13.3997 Y4.631 I-0.0528 J-0.1133
G1 X12.3692 Y2.4211
G1 X12.1579 Y1.9679
G1 X11.7358 Y1.0629
G3 X11.7241 Y1.01 I0.1133 J-0.0528
G3 X11.7963 Y0.8968 I0.125 J0
G1 X12.5099 Y0.564
G3 X12.5628 Y0.5523 I0.0528 J0.1133
G1 Z-0.7 F30
G1 X25.7322 Y0.5523 F60
G1 Z-0.6 F30
G1 X26.2322 Y0.5523 F60
G1 Z-0.7 F30
G1 X29.1966 Y0.5523 F60
G3 X29.3201 Y0.5639 I0 J0.6589
G3 X29.4334 Y0.5978 I-0.1087 J0.5698
G3 X29.5374 Y0.654 I-0.222 J0.5359
G3 X29.633 Y0.733 I-0.3704 J0.545
G3 X29.712 Y0.8286 I-0.4659 J0.4659
G3 X29.7682 Y0.9326 I-0.4797 J0.326
G3 X29.8021 Y1.0459 I-0.5359 J0.222
G3 X29.8137 Y1.1694 I-0.6473 J0.1235
G1 X29.8137 Y1.1694
G3 X29.8021 Y1.2929 I-0.6589 J0
G3 X29.7682 Y1.4062 I-0.5698 J-0.1087
G3 X29.712 Y1.5102 I-0.5359 J-0.222
G3 X29.633 Y1.6058 I-0.545 J-0.3704
G3 X29.5374 Y1.6848 I-0.4659 J-0.4659
G3 X29.4334 Y1.741 I-0.326 J-0.4797
G3 X29.3201 Y1.7749 I-0.222 J-0.5359
G3 X29.1966 Y1.7865 I-0.1235 J-0.6473
G1 X29.1655 Y1.7865
G1 Z-0.6 F30
G1 X28.6655 Y1.7865 F60
G1 Z-0.7 F30
G1 X13.2754 Y1.7865 F60
G2 X13.218 Y1.7962 I0 J0.175
G2 X13.1669 Y1.8243 I0.0575 J0.1653
G2 X13.1278 Y1.8675 I0.1085 J0.1373
G2 X13.1051 Y1.9212 I0.1476 J0.094
G2 X13.1004 Y1.9615 I0.1703 J0.0404
G2 X13.1013 Y1.9793 I0.175 J0
G2 X13.1168 Y2.0355 I0.1741 J-0.0178
G1 X14.0347 Y4.0039
G3 X14.0741 Y4.165 I-0.3852 J0.1796
G3 X14.0745 Y4.1835 I-0.4246 J0.0185
G3 X14.0489 Y4.3289 I-0.425 J0
G3 X13.9629 Y4.4706 I-0.3994 J-0.1454
G3 X13.8291 Y4.5687 I-0.3133 J-0.2871
G1 X13.5658 Y4.6915
G3 X13.3997 Y4.631 I-0.0528 J-0.1133
G1 X12.3692 Y2.4211
